drini-manjani/Equity-Cashflow-projection/runs_v2/2025Q3/test_portfolio_Sentral_dpi_link_smoke/projection/sim_outputs/sim_portfolio_dpi_scenarios.csv
scenario_label,target_quantile,selected_sim_id,quarter_end,draw_q,rep_q,recall_q,nav,cum_draw,cum_repay,cum_recall,dpi_to_date,tvpi_to_date,irr_to_date,is_final
dpi_p05,0.05,5,2025-12-31,0.0,0.0,0.0,0.0,0.0,0.0,0.0,,,,False
dpi_p05,0.05,5,2026-03-31,0.0,0.0,0.0,0.0,0.0,0.0,0.0,,,,False
dpi_p05,0.05,5,2026-06-30,0.0,0.0,0.0,0.0,0.0,0.0,0.0,,,,False
dpi_p05,0.05,5,2026-09-30,0.0,0.0,0.0,0.0,0.0,0.0,0.0,,,,False
dpi_p05,0.05,5,2026-12-31,6632614.79867699,0.0,0.0,3316307.399338495,6632614.79867699,0.0,0.0,0.0,0.5,,False
dpi_p05,0.05,5,2027-03-31,21658543.80744441,0.0,0.0,23183124.316202745,28291158.6061214,0.0,0.0,0.0,0.8194476811277209,,False
dpi_p05,0.05,5,2027-06-30,30949547.421080187,0.0,0.0,54644939.22337374,59240706.027201585,0.0,0.0,0.0,0.9224221466618308,-0.4418222240335422,False
dpi_p05,0.05,5,2027-09-30,50494468.31691399,0.0,0.0,82931501.98676744,109735174.34411559,0.0,0.0,0.0,0.7557421991849648,-0.7973313223258836,False
dpi_p05,0.05,5,2027-12-31,41309426.62109121,569447.6195219421,0.0,106893918.415317,151044600.9652068,569447.6195219421,0.0,0.0037700627224214033,0.7114677740755075,-0.6853855453802424,False
dpi_p05,0.05,5,2028-03-31,24859959.033441547,0.0,0.0,134555489.95412734,175904559.99864835,569447.6195219421,0.0,0.0032372533124003025,0.7681718857924297,-0.4270039654428798,False
dpi_p05,0.05,5,2028-06-30,36686314.30572942,3339693.0858542956,0.0,169604923.97189307,212590874.30437776,3909140.7053762376,0.0,0.01838809270702425,0.8161877373383389,-0.28990749297348306,False
dpi_p05,0.05,5,2028-09-30,82128228.76547265,0.0,0.0,239729474.0565467,294719103.06985044,3909140.7053762376,0.0,0.013263954269193553,0.8266807689903254,-0.2787908789345889,False
dpi_p05,0.05,5,2028-12-31,78016542.4532817,0.0,0.0,319990929.4254694,372735645.52313215,3909140.7053762376,0.0,0.010487702886290317,0.8689806677229754,-0.19274832259404012,False
dpi_p05,0.05,5,2029-03-31,78133162.22256225,1373627.4278526232,0.0,379531193.06853765,450868807.7456944,5282768.133228861,0.0,0.011716863181647564,0.8534943083017952,-0.19507271709317053,False
dpi_p05,0.05,5,2029-06-30,154550710.61799642,67538.72069920301,0.0,569703246.0015149,605419518.3636909,5350306.853928064,0.0,0.0088373544156434,0.9498431012096867,-0.06693087701443313,False
dpi_p05,0.05,5,2029-09-30,50881495.249125555,2265227.5151939956,0.0,606343844.2206149,656301013.6128165,7615534.36912206,0.0,0.011603721784916868,0.9354844284179958,-0.07051474757935278,False
dpi_p05,0.05,5,2029-12-31,113674421.28208655,6609674.503070814,0.0,699904500.9859498,769975434.894903,14225208.872192875,0.0,0.01847488663600616,0.9274707704871352,-0.07380293137285415,False
dpi_p05,0.05,5,2030-03-31,59202853.78374135,3446309.5050190547,0.0,729173355.3701195,829178288.6786443,17671518.37721193,0.0,0.021312085251740942,0.9007048109490213,-0.0886348864025083,False
dpi_p05,0.05,5,2030-06-30,79689725.1421974,774937.9992111489,0.0,817820260.9043007,908868013.8208417,18446456.376423076,0.0,0.02029607830390573,0.9201189881962012,-0.06426311644267424,False
dpi_p05,0.05,5,2030-09-30,105252126.69297042,9514574.048519565,0.0,904652957.432651,1014120140.5138121,27961030.424942642,0.0,0.027571713949765323,0.919628701373663,-0.060660673403131804,False
dpi_p05,0.05,5,2030-12-31,81044943.7144903,7762708.20854073,0.0,995812692.6344235,1095165084.2283025,35723738.63348337,0.0,0.03261950106696084,0.941900400335324,-0.03983473199460025,False
dpi_p05,0.05,5,2031-03-31,101508508.54539187,35011510.8493623,0.0,1037777450.5309198,1196673592.7736943,70735249.48284566,0.0,0.05910989421843336,0.9263283711679587,-0.04801145941754745,False
dpi_p05,0.05,5,2031-06-30,60055590.321480855,7022488.977936477,0.0,1115308778.2714748,1256729183.095175,77757738.46078214,0.0,0.06187310639932308,0.9493425733887038,-0.029899331245790306,False
dpi_p05,0.05,5,2031-09-30,26958240.753882393,31576854.637329012,205.07523063875672,1156746716.8386242,1283687423.8490574,109334593.09811115,205.07523063875672,0.08517228654486474,0.9862847344414023,-0.007154374684120163,False
dpi_p05,0.05,5,2031-12-31,68858742.37644887,106694247.49198306,3302391.388981243,1137795276.2047806,1352546166.2255063,216028840.5900942,3302596.464211882,0.1597201234120953,1.0009448480216647,0.00046082265733626837,False
dpi_p05,0.05,5,2032-03-31,53254562.0496238,18660287.97645547,8750901.153017491,1173283448.3861747,1405800728.27513,234689128.5665497,12053497.617229372,0.16694338240563106,1.0015449193003756,0.000710307668522234,False
dpi_p05,0.05,5,2032-06-30,58439128.18474239,61598783.30842669,0.0,1179217937.360857,1464239856.4598725,296287911.8749764,12053497.617229372,0.20234930128955697,1.0076940896850048,0.0033526760278511647,False
dpi_p05,0.05,5,2032-09-30,16753122.041138783,32504301.737789415,7339334.1473313095,1197745572.1181574,1480992978.5010114,328792213.6127658,19392831.76456068,0.22200794898133358,1.0307528853215835,0.012313364514153623,False
dpi_p05,0.05,5,2032-12-31,37358552.2515572,99850737.08767456,0.0,1171147865.2457564,1518351530.7525685,428642950.70044035,19392831.76456068,0.2823081098274944,1.053636647076888,0.02014472439602366,False
dpi_p05,0.05,5,2033-03-31,14963552.144685501,60905216.39780939,1634301.8149881223,1138133260.1201494,1533315082.897254,489548167.09824973,21027133.579548802,0.31927434390929676,1.0615440005604304,0.021744872797805605,False
dpi_p05,0.05,5,2033-06-30,30243338.54997012,76013903.052035,2845304.455432154,1131927530.780124,1563558421.4472241,565562070.1502848,23872438.034980956,0.361714703072497,1.085657931066764,0.028658492176195177,False
dpi_p05,0.05,5,2033-09-30,10331913.935667062,37435537.25535728,1157481.7432648172,1147318708.9475784,1573890335.3828912,602997607.405642,25029919.778245773,0.38312555446180224,1.1120954726031842,0.03519430709108995,False
dpi_p05,0.05,5,2033-12-31,9706428.504496802,47183622.740305096,0.0,1125873856.1139078,1583596763.887388,650181230.1459471,25029919.778245773,0.41057246704008954,1.1215324044361035,0.03625140996530765,False
dpi_p05,0.05,5,2034-03-31,3486676.2597878305,10332611.915865242,0.0,1155700661.8226414,1587083440.1471758,660513842.0618124,25029919.778245773,0.4161809173691338,1.144372411645874,0.04067463653180525,False
dpi_p05,0.05,5,2034-06-30,0.0,131051934.5463233,354741.7909048842,1051747904.3327359,1587083440.1471758,791565776.6081357,25384661.569150656,0.4987549845109158,1.1614472398312812,0.04307808130573754,False
dpi_p05,0.05,5,2034-09-30,4271863.252978396,105230277.87166178,498876.8154187215,1008290256.9011927,1591355303.400154,896796054.4797975,25883538.384569377,0.5635423167683966,1.1971470527735104,0.04975094908550337,False
dpi_p05,0.05,5,2034-12-31,1154202.382109371,9145943.896135405,0.0,1046342818.3193555,1592509505.7822635,905941998.3759329,25883538.384569377,0.5688769800660758,1.2259172140616506,0.05426727112716001,False
dpi_p05,0.05,5,2035-03-31,124314.10657336765,53875597.48327346,10845.31181489321,1042946696.0735717,1592633819.8888369,959817595.8592064,25894383.69638427,0.6026605638238928,1.2575171184500953,0.05886765357486745,False
dpi_p05,0.05,5,2035-06-30,427704.68576655345,34234645.62830596,0.0,998565795.0612117,1593061524.5746033,994052241.4875124,25894383.69638427,0.623988606939054,1.250810471416548,0.055807852723858686,False
dpi_p05,0.05,5,2035-09-30,0.0,29179940.211026948,0.0,988637427.820906,1593061524.5746033,1023232181.6985393,25894383.69638427,0.642305501648327,1.2628951101287045,0.05644201865179832,False
dpi_p05,0.05,5,2035-12-31,134037.08860553024,31399534.811196104,2641310.059787515,944825841.5255654,1593195561.663209,1054631716.5097353,28535693.756171785,0.6619599890227899,1.254998197426546,0.053502008423335676,False
dpi_p05,0.05,5,2036-03-31,204497.23071942988,38781532.02226691,3152171.0975243044,951329593.4536741,1593400058.8939283,1093413248.5320022,31687864.85369609,0.6862138873592135,1.2832576668818823,0.057013234155121384,False
dpi_p05,0.05,5,2036-06-30,1742046.3326882976,34641451.3694427,0.0,891906043.4205315,1595142105.2266166,1128054699.901445,31687864.85369609,0.7071813202129636,1.2663202461419618,0.052892510615182256,False
dpi_p05,0.05,5,2036-09-30,1085493.2783543405,7659760.080020523,61269.057818030116,877289045.4331384,1596227598.504971,1135714459.9814653,31749133.91151412,0.711499075097547,1.2611005518887066,0.05088094942924093,False
dpi_p05,0.05,5,2036-12-31,5059808.870063517,74128951.95338139,1239.0787897441405,791937562.9466941,1601287407.3750346,1209843411.9348466,31750372.990303863,0.7555441992253745,1.2501072360039533,0.04813934031240186,False
dpi_p05,0.05,5,2037-03-31,719349.2629596906,44592970.01754037,4813.681400827002,748982206.5330553,1602006756.6379943,1254436381.952387,31755186.67170469,0.7830406312299045,1.250568126622549,0.047319382212151484,False
dpi_p05,0.05,5,2037-06-30,795407.9908592657,84944352.28835995,272680.11831453413,645682884.3867145,1602802164.6288536,1339380734.240747,32027866.790019225,0.8356494418329509,1.2384957185824146,0.044617003848394954,False
dpi_p05,0.05,5,2037-09-30,1152729.4825031655,6837011.246955553,0.0,583407717.0848131,1603954894.1113567,1346217745.4877026,32027866.790019225,0.8393114734274065,1.2030422237288605,0.03836721844286173,False
dpi_p05,0.05,5,2037-12-31,271009.3125793818,27013177.883851163,0.0,555701099.8748004,1604225903.4239361,1373230923.3715537,32027866.790019225,0.8560084464666948,1.202406730329806,0.03772397046286258,False
dpi_p05,0.05,5,2038-03-31,982292.1112183528,20331084.19296865,0.0,554640685.9148833,1605208195.5351546,1393562007.5645223,32027866.790019225,0.8681503193421758,1.2136760196579368,0.038991844259636754,False
dpi_p05,0.05,5,2038-06-30,726451.4811822462,34310728.61981708,128624.94585605318,532636628.1412227,1605934647.016337,1427872736.1843393,32156491.73587528,0.8891225672459222,1.2207902531824621,0.039575929379278896,False
dpi_p05,0.05,5,2038-09-30,0.0,976182.7961502398,0.0,562883546.6286111,1605934647.016337,1428848918.9804895,32156491.73587528,0.8897304268484059,1.240232576904382,0.04191344287743759,False
dpi_p05,0.05,5,2038-12-31,249199.9493646681,5328464.410824005,0.0,542749022.2253815,1606183846.9657016,1434177383.3913136,32156491.73587528,0.8929098534396722,1.2308219942264866,0.04007798482763769,False
dpi_p05,0.05,5,2039-03-31,0.0,5406603.371104378,0.0,514048119.3433876,1606183846.9657016,1439583986.762418,32156491.73587528,0.8962759708248759,1.2163191092952907,0.03756658424979509,False
dpi_p05,0.05,5,2039-06-30,324764.5012650382,6042637.974202357,229.39299142552653,485633784.7538097,1606508611.4669666,1445626624.7366204,32156721.128866706,0.8998561317493103,1.2021475613049593,0.03514036460932679,False
dpi_p05,0.05,5,2039-09-30,0.0,44275265.981111795,0.0,434856815.1743233,1606508611.4669666,1489901890.7177322,32156721.128866706,0.9274160624369413,1.1981004596884681,0.03419098498698647,False
dpi_p05,0.05,5,2039-12-31,0.0,5756886.097362117,0.0,438905256.98203886,1606508611.4669666,1495658776.8150942,32156721.128866706,0.9309995390870324,1.2042039613037654,0.03472188961442113,False
dpi_p05,0.05,5,2040-03-31,0.0,42146450.67881066,0.0,408628861.8674522,1606508611.4669666,1537805227.4939048,32156721.128866706,0.957234350639225,1.2115926895555145,0.035410674609343995,False
dpi_p05,0.05,5,2040-06-30,416825.7696288191,26525584.729253825,105940.05437460754,390977270.01379466,1606925437.2365954,1564330812.2231586,32262661.183241315,0.973493091822178,1.2168007531198624,0.0358164104126778,False
dpi_p05,0.05,5,2040-09-30,0.0,33647209.72429107,4853.039906574034,387511227.4765893,1606925437.2365954,1597978021.9474497,32267514.223147888,0.9944319661125457,1.2355826869219606,0.03795736337798272,False
dpi_p05,0.05,5,2040-12-31,0.0,4798076.839883769,0.0,350625409.6106327,1606925437.2365954,1602776098.7873335,32267514.223147888,0.9974178400857245,1.2156142799987038,0.03512497129583447,False
dpi_p05,0.05,5,2041-03-31,0.0,5361997.3520530695,0.0,343677067.81736505,1606925437.2365954,1608138096.1393867,32267514.223147888,1.0007546454083625,1.2146270876844527,0.03475966168372169,False
dpi_p05,0.05,5,2041-06-30,0.0,5658583.496801165,0.0,319000387.53197664,1606925437.2365954,1613796679.6361878,32267514.223147888,1.0042760181899968,1.2027920041467297,0.033010607790081914,False
dpi_p05,0.05,5,2041-09-30,0.0,15108762.08034156,1637232.7120996846,311064324.3144981,1606925437.2365954,1628905441.7165294,33904746.93524757,1.0136782976799052,1.2072556206261589,0.03337132480772176,False
dpi_p05,0.05,5,2041-12-31,0.0,19042616.362673227,0.0,241877052.73725748,1606925437.2365954,1647948058.0792027,33904746.93524757,1.0255286399057526,1.1760502802584063,0.029131485669318447,False
dpi_p05,0.05,5,2042-03-31,0.0,26105341.067473605,0.0,200909866.42546898,1606925437.2365954,1674053399.1466763,33904746.93524757,1.0417741609875315,1.1668016586982968,0.02775739147972056,False
dpi_p05,0.05,5,2042-06-30,0.0,1374930.828126308,0.0,172846172.90806597,1606925437.2365954,1675428329.9748025,33904746.93524757,1.0426297892551943,1.1501930706015318,0.02538849043478375,False
dpi_p05,0.05,5,2042-09-30,0.0,8630740.945847927,0.0,157872814.7412725,1606925437.2365954,1684059070.9206505,33904746.93524757,1.048000754668929,1.1462460192486992,0.024751723559475254,False
dpi_p05,0.05,5,2042-12-31,0.0,948695.7269539451,0.0,152366139.4713988,1606925437.2365954,1685007766.6476045,33904746.93524757,1.0485911341009613,1.1434095593624471,0.02427812988879674,False
dpi_p05,0.05,5,2043-03-31,0.0,10350929.431886476,0.0,139429515.4251473,1606925437.2365954,1695358696.079491,33904746.93524757,1.0550325838359824,1.1418004650296,0.02398023612270428,False
dpi_p05,0.05,5,2043-06-30,0.0,5513888.988031914,615023.933250034,116389645.64055167,1606925437.2365954,1700872585.0675228,34519770.8684976,1.0584639122973165,1.1308939348381912,0.022401378499857016,False
dpi_p05,0.05,5,2043-09-30,0.0,639404.3178390312,0.0,108855597.97768228,1606925437.2365954,1701511989.385362,34519770.8684976,1.0588618177028957,1.1266033540898481,0.021744310778512577,False
dpi_p05,0.05,5,2043-12-31,0.0,2675467.2429843363,2667.7607498916077,93178683.09659258,1606925437.2365954,1704187456.6283462,34522438.629247494,1.060526778117976,1.1185124698852495,0.020549469219702243,False
dpi_p05,0.05,5,2044-03-31,0.0,4335763.846363379,7.898144137243887,85754346.25122619,1606925437.2365954,1708523220.4747095,34522446.527391635,1.0632249517518562,1.1165904311101869,0.020234067761827457,False
dpi_p05,0.05,5,2044-06-30,0.0,7807987.203117465,0.0,72260060.85428469,1606925437.2365954,1716331207.677827,34522446.527391635,1.06808391223763,1.1130518112949435,0.019691745785798465,False
dpi_p05,0.05,5,2044-09-30,0.0,2573222.686287807,0.0,58250917.99017748,1606925437.2365954,1718904430.3641148,34522446.527391635,1.0696852452096892,1.105935164863927,0.018635962870875544,False
dpi_p05,0.05,5,2044-12-31,0.0,135411.35260789806,0.0,46505126.526745155,1606925437.2365954,1719039841.7167227,34522446.527391635,1.0697695125624054,1.0987099508983118,0.01755481047839058,False
dpi_p05,0.05,5,2045-03-31,0.0,6231241.640894648,0.0,34265311.32257773,1606925437.2365954,1725271083.3576174,34522446.527391635,1.0736472541778534,1.0949707770548722,0.016982973301983617,False
dpi_p05,0.05,5,2045-06-30,0.0,4211986.289827784,0.0,23328857.105814673,1606925437.2365954,1729483069.6474452,34522446.527391635,1.0762684002448863,1.0907860975600356,0.01634512633192975,False
dpi_p05,0.05,5,2045-09-30,0.0,95832.02249995424,0.0,18705358.279375076,1606925437.2365954,1729578901.6699452,34522446.527391635,1.0763280371267725,1.0879685014855558,0.015912651991165316,True
dpi_p10,0.1,10,2025-12-31,0.0,0.0,0.0,0.0,0.0,0.0,0.0,,,,False
dpi_p10,0.1,10,2026-03-31,0.0,0.0,0.0,0.0,0.0,0.0,0.0,,,,False
dpi_p10,0.1,10,2026-06-30,0.0,0.0,0.0,0.0,0.0,0.0,0.0,,,,False
dpi_p10,0.1,10,2026-09-30,0.0,0.0,0.0,0.0,0.0,0.0,0.0,,,,False
dpi_p10,0.1,10,2026-12-31,18637692.193456914,0.0,0.0,17375257.701880626,18637692.193456914,0.0,0.0,0.0,0.9322644414087122,,False
dpi_p10,0.1,10,2027-03-31,4848427.234426415,0.0,0.0,21023823.474555958,23486119.427883327,0.0,0.0,0.0,0.8951595234415751,-0.43709845711740225,False
dpi_p10,0.1,10,2027-06-30,33037057.473107956,0.0,0.0,45079563.455572665,56523176.90099128,0.0,0.0,0.0,0.7975412198528083,-0.7832873546211212,False
dpi_p10,0.1,10,2027-09-30,73105573.90109026,0.0,0.0,120066910.21006335,129628750.80208156,0.0,0.0,0.0,0.9262367296386484,-0.3528930184695479,False
dpi_p10,0.1,10,2027-12-31,65372371.00856834,0.0,0.0,167870979.85623896,195001121.8106499,0.0,0.0,0.0,0.860871867287231,-0.4249441572150877,False
dpi_p10,0.1,10,2028-03-31,29409907.037929963,0.0,0.0,177523229.23587835,224411028.84857985,0.0,0.0,0.0,0.791062855273754,-0.41009096334394396,False
dpi_p10,0.1,10,2028-06-30,64084722.76554899,2016277.2157216275,0.0,239193888.2345094,288495751.6141288,2016277.2157216275,0.0,0.006988932088048405,0.8360960745545273,-0.28568513024280173,False
dpi_p10,0.1,10,2028-09-30,80001664.57034528,8733757.37467283,0.0,303454631.7142804,368497416.1844741,10750034.590394458,0.0,0.029172618635168027,0.8526645032088376,-0.2324236552708609,False
dpi_p10,0.1,10,2028-12-31,38686964.81646754,373376.39633402636,0.0,347938361.00900835,407184381.00094163,11123410.986728484,0.0,0.02731787245715292,0.8818161716151546,-0.1503660989092641,False
dpi_p10,0.1,10,2029-03-31,82323019.90509935,8268919.399199343,4540863.92708136,412632507.71835023,489507400.90604097,19392330.385927826,4540863.92708136,0.03961601060583374,0.8825705950607344,-0.1395412731281349,False
dpi_p10,0.1,10,2029-06-30,84855561.19016722,2013625.8759506154,0.0,496608069.10676014,574362962.0962082,21405956.261878442,4540863.92708136,0.037269040092269834,0.9018931573827162,-0.10734552475990028,False
dpi_p10,0.1,10,2029-09-30,47553183.31557551,1745585.0474009442,0.0,532446511.6894913,621916145.4117837,23151541.309279386,4540863.92708136,0.03722614612931502,0.8933648966950322,-0.10096753953151433,False
dpi_p10,0.1,10,2029-12-31,114585122.97126174,23044604.255987186,0.0,632214639.2462378,736501268.3830454,46196145.56526657,4540863.92708136,0.06272378276644124,0.9211264310527584,-0.07209207698294712,False
dpi_p10,0.1,10,2030-03-31,164167422.46398383,884412.1730953133,0.0,788625052.570374,900668690.8470292,47080557.73836189,4540863.92708136,0.05227289259281925,0.9278723894829749,-0.06708309573058144,False
dpi_p10,0.1,10,2030-06-30,61769299.91459325,13717133.091569245,0.0,806148827.365572,962437990.7616224,60797690.82993113,4540863.92708136,0.06317050180221903,0.9007816882929233,-0.08226473872608073,False
dpi_p10,0.1,10,2030-09-30,68372479.4167552,1039726.067738607,0.0,880128413.3346664,1030810470.1783776,61837416.89766974,4540863.92708136,0.059989123788167405,0.91381088714527,-0.06412387563149602,False
dpi_p10,0.1,10,2030-12-31,117166628.2223511,3792357.793163154,0.0,994144638.3170705,1147977098.4007287,65629774.69083289,4540863.92708136,0.057169933775040566,0.9231668597607893,-0.05432723563171821,False
dpi_p10,0.1,10,2031-03-31,127042277.399301,31530828.017831802,0.0,1089358973.3630195,1275019375.8000298,97160602.70866469,4540863.92708136,0.07620323624313538,0.9305894471816829,-0.04697212850619159,False
dpi_p10,0.1,10,2031-06-30,100832782.15691622,77696012.05125257,4.809709664461589,1144170492.3007474,1375852157.956946,174856614.75991726,4540868.736791024,0.12708968310924362,0.9586982870451264,-0.02585418935257383,False
dpi_p10,0.1,10,2031-09-30,58633280.95550504,749601.5483390827,0.0,1214339364.398937,1434485438.912451,175606216.30825633,4540868.736791024,0.12241756628871146,0.9689506376314106,-0.01776509413792402,False
dpi_p10,0.1,10,2031-12-31,28038455.17779069,56917814.56735218,5121008.717349354,1173829865.8229983,1462523894.0902417,232524030.8756085,9661877.454140378,0.1589881928187227,0.961593791651127,-0.019995209089626598,False
dpi_p10,0.1,10,2032-03-31,45238220.47206213,71349.26051853914,0.0,1263369549.4603302,1507762114.5623038,232595380.13612705,9661877.454140378,0.15426530345183026,0.9921756987711081,-0.003734998784677701,False
dpi_p10,0.1,10,2032-06-30,21962223.757201232,34378052.10780724,15780.160702262352,1267482858.6390224,1529724338.319505,266973432.2439343,9677657.61484264,0.17452388352349862,1.00309333678292,0.0013540537532309438,False
dpi_p10,0.1,10,2032-09-30,8562430.627769519,50920504.07518544,0.0,1239119762.6847625,1538286768.9472744,317893936.31911975,9677657.61484264,0.20665453460063904,1.0121738874926576,0.004888108595364675,False
dpi_p10,0.1,10,2032-12-31,8529633.98722632,67302381.79115348,0.0,1247983070.6493263,1546816402.9345007,385196318.11027324,9677657.61484264,0.2490252349144401,1.0558327320949388,0.020403924490447145,False
dpi_p10,0.1,10,2033-03-31,7545060.768129907,3842528.3230966805,0.0,1297194189.7239954,1554361463.7026305,389038846.43336993,9677657.61484264,0.2502885303825302,1.0848397078377154,0.02869950600629745,False
dpi_p10,0.1,10,2033-06-30,8381308.368776933,1343815.8947983244,0.0,1334550557.690291,1562742772.0714076,390382662.3281683,9677657.61484264,0.24980609048712352,1.1037857610642277,0.032782115303345516,False
dpi_p10,0.1,10,2033-09-30,10607767.966334831,15397871.437918734,0.0,1357011091.5724971,1573350540.0377424,405780533.766087,9677657.61484264,0.25790853559967186,1.1204061526532398,0.03569806182967572,False
dpi_p10,0.1,10,2033-12-31,2737708.603553815,123802294.51894887,583161.1217302118,1286579747.8893616,1576088248.6412961,529582828.28503585,10260818.736572852,0.3360108983374346,1.1523228967286971,0.04203368716757805,False
dpi_p10,0.1,10,2034-03-31,11632219.984618146,63352931.3184174,12757.736092190395,1232265368.9328022,1587720468.6259143,592935759.6034533,10273576.472665044,0.3734509766171919,1.1495733440508376,0.03961481588372806,False
dpi_p10,0.1,10,2034-06-30,2783989.062401157,30090775.730133902,0.0,1200614460.9627824,1590504457.6883154,623026535.3335872,10273576.472665044,0.39171630882387576,1.1465802484746892,0.037211188084400715,False
dpi_p10,0.1,10,2034-09-30,0.0,70445685.99629462,399752.6291588273,1128103309.9494958,1590504457.6883154,693472221.3298818,10673329.10182387,0.43600771942368155,1.1452816258854799,0.03535362276195386,False
dpi_p10,0.1,10,2034-12-31,472323.6290887704,78204015.20985085,0.0,1077351261.7506666,1590976781.3174043,771676236.5397327,10673329.10182387,0.4850329970879576,1.162196406637259,0.037645793015592344,False
dpi_p10,0.1,10,2035-03-31,0.0,56667934.4173056,0.0,1039432436.8833932,1590976781.3174043,828344170.9570383,10673329.10182387,0.5206513260810318,1.1739810597951177,0.03878079207041851,False
dpi_p10,0.1,10,2035-06-30,0.0,36484860.87929317,0.0,1062400019.8713192,1590976781.3174043,864829031.8363315,10673329.10182387,0.5435836914729906,1.2113495774035203,0.04474456727490661,False
dpi_p10,0.1,10,2035-09-30,0.0,42420058.76918966,262746.36497621465,1021531074.9966694,1590976781.3174043,907249090.6055212,10936075.466800084,0.5702465939536062,1.212324521797904,0.04357645173080826,False
dpi_p10,0.1,10,2035-12-31,0.0,98047597.53649321,230080.7414929164,923637295.2083603,1590976781.3174043,1005296688.1420144,11166156.208293,0.6318738902710956,1.2124212031259978,0.042372859184165335,False
dpi_p10,0.1,10,2036-03-31,241571.35256690084,119431163.16033275,58279.23391818445,802002396.2213962,1591218352.6699712,1124727851.3023472,11224435.442211185,0.7068343885143856,1.2108522028361492,0.04107627041761741,False
dpi_p10,0.1,10,2036-06-30,0.0,84598835.15074667,2624773.4989345493,716684423.1756821,1591218352.6699712,1209326686.4530938,13849208.941145733,0.7600004640619651,1.210400261156517,0.0401506581776504,False
dpi_p10,0.1,10,2036-09-30,0.0,52415349.23863484,11462430.762689024,668805415.5695662,1591218352.6699712,1261742035.6917286,25311639.703834757,0.7929408516276848,1.2132511217093174,0.03988292615176428,False
dpi_p10,0.1,10,2036-12-31,1072979.87362804,40571906.67919924,332473.0992855321,609251623.7928928,1592291332.5435994,1302313942.3709278,25644112.80312029,0.8178867244667793,1.200512448378525,0.037189183491034616,False
dpi_p10,0.1,10,2037-03-31,1333689.6104529756,22173341.84753568,0.0,602306627.0802677,1593625022.1540523,1324487284.2184634,25644112.80312029,0.831116019016943,1.2090635403643104,0.03802135963637043,False
dpi_p10,0.1,10,2037-06-30,22438.619637259795,17987698.606586706,0.0,601174850.1821465,1593647460.7736895,1342474982.82505,25644112.80312029,0.8423914421909227,1.21962346180603,0.03909950637145865,False
dpi_p10,0.1,10,2037-09-30,624290.9604020217,49960852.34521548,0.0,585539305.2492559,1594271751.7340915,1392435835.1702657,25644112.80312029,0.8733993020046371,1.2406762763425214,0.04167949738911292,False
dpi_p10,0.1,10,2037-12-31,659422.8132952977,37833653.917672515,0.0,555049462.690803,1594931174.547387,1430269489.0879383,25644112.80312029,0.8967593786570905,1.244767789018946,0.041735582319749054,False
dpi_p10,0.1,10,2038-03-31,62013.53736666787,16495477.985543638,45836.2415312592,522914108.0679997,1594993188.0847535,1446764967.073482,25689949.04465155,0.9070665491748827,1.2349137851219578,0.039852569607975785,False
dpi_p10,0.1,10,2038-06-30,116224.73089467615,124231228.83014375,486565.1804177776,396439642.3402754,1595109412.815648,1570996195.9036257,26176514.225069325,0.9848830326507457,1.2334174837392702,0.039198343301912186,False
dpi_p10,0.1,10,2038-09-30,5288787.903436233,5613401.322120056,408.91302030651303,405176251.58413166,1600398200.7190843,1576609597.2257457,26176923.13808963,0.9851358221456072,1.2383079710533476,0.039645486880875436,False
dpi_p10,0.1,10,2038-12-31,0.0,6163589.662021645,961633.7351167585,399501190.5379501,1600398200.7190843,1582773186.8877673,27138556.87320639,0.9889871071940735,1.238613225467918,0.039350039834055495,False
dpi_p10,0.1,10,2039-03-31,811064.6962630652,19848710.611230515,0.0,368077091.69271326,1601209265.4153473,1602621897.498998,27138556.87320639,1.0008822282721954,1.2307566735697846,0.037994711937429204,False
dpi_p10,0.1,10,2039-06-30,2025680.4345511603,15758891.201275293,0.0,351241975.53305244,1603234945.8498986,1618380788.7002733,27138556.87320639,1.0094470513442717,1.2285303344540057,0.03745138237591117,False
dpi_p10,0.1,10,2039-09-30,103738.53341679875,55810519.82274021,183693.3101292282,300707939.56740516,1603338684.3833153,1674191308.5230136,27322250.183335617,1.0441906783824342,1.2317417818993217,0.03760720531705164,False
dpi_p10,0.1,10,2039-12-31,38704.302389495526,1669786.5655198412,0.0,296679519.20495117,1603377388.6857047,1675861095.0885334,27322250.183335617,1.0452068907259844,1.230241007645982,0.037186406489127743,False
dpi_p10,0.1,10,2040-03-31,230139.5033299208,6663301.275666982,0.0,297860564.2337127,1603607528.1890347,1682524396.3642004,27322250.183335617,1.0492120838720975,1.234956138447651,0.03757657581383145,False
dpi_p10,0.1,10,2040-06-30,0.0,3935473.2897916706,0.0,307524598.15015304,1603607528.1890347,1686459869.653992,27322250.183335617,1.0516662213219483,1.243436709265119,0.03842085670233819,False
dpi_p10,0.1,10,2040-09-30,0.0,46428829.575843304,38235.09259345386,268723177.81535476,1603607528.1890347,1732888699.2298353,27360485.27592907,1.0806189599189515,1.248193115746734,0.03877771986130163,False
dpi_p10,0.1,10,2040-12-31,0.0,11699028.81773575,0.0,244973534.16134822,1603607528.1890347,1744587728.047571,27360485.27592907,1.087914403855254,1.2406784248860097,0.0376745359500007,False
dpi_p10,0.1,10,2041-03-31,0.0,1678439.947928637,0.0,239435981.523508,1603607528.1890347,1746266167.9954996,27360485.27592907,1.0889610689016722,1.2382719054465123,0.03721599440111889,False
dpi_p10,0.1,10,2041-06-30,0.0,20815152.515516438,31372.768699681114,210728309.36521152,1603607528.1890347,1767081320.5110161,27391858.04462875,1.1019412726919495,1.2333501777144822,0.03646209211700324,False
dpi_p10,0.1,10,2041-09-30,0.0,878277.1112463573,0.0,202128381.25082493,1603607528.1890347,1767959597.6222625,27391858.04462875,1.1024889610108228,1.2285350026374107,0.03574351385382879,False
dpi_p10,0.1,10,2041-12-31,0.0,6494398.370576597,528.4958905497643,190584917.0702034,1603607528.1890347,1774453995.992839,27392386.5405193,1.1065388287349478,1.2253864355963549,0.035234506621156014,False
dpi_p10,0.1,10,2042-03-31,0.0,4227781.070293776,0.0,174469487.56418857,1603607528.1890347,1778681777.0631328,27392386.5405193,1.10917524755687,1.217973369601868,0.03422937854370722,False
dpi_p10,0.1,10,2042-06-30,0.0,61622672.67528707,0.0,98779576.1308445,1603607528.1890347,1840304449.7384198,27392386.5405193,1.1476027752355893,1.2092011242046772,0.033067830508620166,False
dpi_p10,0.1,10,2042-09-30,0.0,5121459.372175638,0.0,83458421.80648842,1603607528.1890347,1845425909.1105955,27392386.5405193,1.1507964864661417,1.2028406558401399,0.032239332963456824,False
dpi_p10,0.1,10,2042-12-31,0.0,1784293.0581028746,123257.33086024488,77351225.18305485,1603607528.1890347,1847210202.1686983,27515643.871379547,1.151909160874772,1.200144919203001,0.0318634843606832,False
dpi_p10,0.1,10,2043-03-31,0.0,947382.0505242778,0.0,70112462.7261406,1603607528.1890347,1848157584.2192225,27515643.871379547,1.15249994261773,1.1962216522590654,0.03134538906084361,False
dpi_p10,0.1,10,2043-06-30,0.0,3229797.27235243,0.0,62383994.90537507,1603607528.1890347,1851387381.491575,27515643.871379547,1.1545140247516548,1.1934163083894882,0.030966856844815704,False
dpi_p10,0.1,10,2043-09-30,0.0,7926797.935783623,250.79913294868373,46665473.76234967,1603607528.1890347,1859314179.4273586,27515894.670512494,1.159457128220828,1.1885574367078113,0.030345286606968558,False
dpi_p10,0.1,10,2043-12-31,0.0,2010906.0160814216,24310.691406533617,38408161.26102491,1603607528.1890347,1861325085.44344,27540205.361919027,1.1607111171057218,1.1846622152303357,0.029848389877219828,False
dpi_p10,0.1,10,2044-03-31,0.0,1881956.9660311164,0.0,32199182.59437397,1603607528.1890347,1863207042.409471,27540205.361919027,1.161884694139347,1.181963910548824,0.02950125135208259,False
dpi_p10,0.1,10,2044-06-30,0.0,868103.5061855805,5555.94016352838,28299521.429579236,1603607528.1890347,1864075145.9156566,27545761.302082554,1.162426038259355,1.1800734494445209,0.029255792152376947,False
dpi_p10,0.1,10,2044-09-30,0.0,126870.81675580966,0.0,25810143.456356894,1603607528.1890347,1864202016.7324123,27545761.302082554,1.1625051541368534,1.1786002042053103,0.029063349196872923,False
dpi_p10,0.1,10,2044-12-31,0.0,3798412.16474944,2293.6454308685434,19212225.231879663,1603607528.1890347,1868000428.8971617,27548054.947513424,1.1648738210943097,1.1768544490809942,0.02884036822817937,False
dpi_p10,0.1,10,2045-03-31,0.0,12046.062162998824,0.0,15336106.369942842,1603607528.1890347,1868012474.9593248,27548054.947513424,1.1648813329461507,1.1744448365468492,0.02854230342074693,False
dpi_p10,0.1,10,2045-06-30,0.0,327799.8259272331,35.27974413604759,11842781.583822135,1603607528.1890347,1868340274.785252,27548090.22725756,1.165085746944068,1.1724708342398331,0.02829865709530377,False
dpi_p10,0.1,10,2045-09-30,0.0,9794.04059904132,0.0,10081357.156261213,1603607528.1890347,1868350068.8258512,27548090.22725756,1.1650918544488202,1.1713785280762796,0.028162470290789776,True
dpi_p50,0.5,2,2025-12-31,0.0,0.0,0.0,0.0,0.0,0.0,0.0,,,,False
dpi_p50,0.5,2,2026-03-31,0.0,0.0,0.0,0.0,0.0,0.0,0.0,,,,False
dpi_p50,0.5,2,2026-06-30,0.0,0.0,0.0,0.0,0.0,0.0,0.0,,,,False
dpi_p50,0.5,2,2026-09-30,0.0,0.0,0.0,0.0,0.0,0.0,0.0,,,,False
dpi_p50,0.5,2,2026-12-31,18462481.291613482,0.0,0.0,17430962.751401175,18462481.291613482,0.0,0.0,0.0,0.9441289324051545,,False
dpi_p50,0.5,2,2027-03-31,8000064.546342511,0.0,0.0,23038557.259196885,26462545.837955993,0.0,0.0,0.0,0.8706100085862494,-0.5647810898793684,False
dpi_p50,0.5,2,2027-06-30,26358515.58078734,0.0,0.0,50051990.69224534,52821061.41874333,0.0,0.0,0.0,0.9475763899451783,-0.23155927694924783,False
dpi_p50,0.5,2,2027-09-30,17287497.81862955,131982.8431045237,0.0,65479734.5896612,70108559.23737288,131982.8431045237,0.0,0.0018825496421579207,0.935858875813126,-0.1764857821981357,False
dpi_p50,0.5,2,2027-12-31,27137805.790266786,0.0,0.0,101536421.75191903,97246365.02763966,131982.8431045237,0.0,0.0013572007865487942,1.045472543535453,0.1064775220712054,False
dpi_p50,0.5,2,2028-03-31,24921870.719742704,0.0,0.0,126643271.6156565,122168235.74738236,131982.8431045237,0.0,0.0010803368182989547,1.037710446444565,0.06977086112681447,False
dpi_p50,0.5,2,2028-06-30,69850794.9511407,1220608.0662150758,0.0,186500058.44497216,192019030.69852304,1352590.9093195994,0.0,0.007044046126048917,0.9783022478080693,-0.04308289439373546,False
dpi_p50,0.5,2,2028-09-30,37584592.559585795,0.0,0.0,222806161.52314144,229603623.25810885,1352590.9093195994,0.0,0.005890982424955397,0.9762857800395992,-0.037673208200823066,False
dpi_p50,0.5,2,2028-12-31,56902869.499415964,303132.427905776,0.0,304201834.41257674,286506492.75752485,1655723.3372253755,0.0,0.005779008082119247,1.0675414536195325,0.09463835617066862,False
dpi_p50,0.5,2,2029-03-31,65877685.7976467,778620.6949207342,0.0,365904792.0202925,352384178.55517155,2434344.0321461097,0.0,0.006908210357591219,1.0452771675581032,0.05796810856040267,False
dpi_p50,0.5,2,2029-06-30,127257909.16735935,4118108.523257576,656408.550295695,482928488.97575486,479642087.7225309,6552452.555403685,656408.550295695,0.0136611292526819,1.0205129075626895,0.02717754643097503,False
dpi_p50,0.5,2,2029-09-30,91275367.21178249,0.0,0.0,577213543.7696743,570917454.9343134,6552452.555403685,656408.550295695,0.011477057670548142,1.0225050771871091,0.026631426861852492,False
dpi_p50,0.5,2,2029-12-31,79931244.50940096,28659016.598249644,0.0,634021766.5620004,650848699.4437144,35211469.15365333,656408.550295695,0.054100851985644065,1.0282470200641913,0.029319112895764367,False
dpi_p50,0.5,2,2030-03-31,135094470.0203415,3422790.6968586408,0.0,727436907.0472925,785943169.4640559,38634259.85051197,656408.550295695,0.04915655654448544,0.9747157258459256,-0.025955664953915547,False
dpi_p50,0.5,2,2030-06-30,110992974.98345497,9528227.884766717,0.0,839866296.0255152,896936144.4475108,48162487.73527868,656408.550295695,0.05369667398669223,0.9900691250521478,-0.009321398078036724,False
dpi_p50,0.5,2,2030-09-30,108589814.06579004,8781225.645096408,0.0,924635709.2753632,1005525958.5133009,56943713.38037509,656408.550295695,0.056630774072275576,0.9761850644880733,-0.02061554989449571,False
dpi_p50,0.5,2,2030-12-31,84905257.15265702,7264854.9422433525,0.0,1019181661.2038577,1090431215.665958,64208568.32261844,656408.550295695,0.05888364841371898,0.9935429341728982,-0.004998719828913525,False
dpi_p50,0.5,2,2031-03-31,90842433.53096128,56475903.08099817,0.0,1055349661.8165363,1181273649.1969192,120684471.4036166,656408.550295695,0.10216470289137755,0.9955645197196024,-0.00315207714087681,False
dpi_p50,0.5,2,2031-06-30,60529349.5262359,13424941.616497368,1647952.2511692438,1139630186.0989428,1241802998.723155,134109413.02011397,2304360.8014649386,0.1079957232813963,1.025717928229147,0.016359655648166327,False
dpi_p50,0.5,2,2031-09-30,68085091.02050428,54952738.03648147,7842916.803155229,1170641727.3074093,1309888089.7436593,189062151.05659544,10147277.604620168,0.1443345828830265,1.0380305684206153,0.022161188591116265,False
dpi_p50,0.5,2,2031-12-31,84070902.18660218,32097992.798169527,0.0,1260106391.5089445,1393958991.9302614,221160143.85476497,10147277.604620168,0.15865613345520096,1.0626327918818834,0.03401005253917366,False
dpi_p50,0.5,2,2032-03-31,64342311.64771242,127939476.17071259,31483407.873746548,1247064162.0388842,1458301303.5779738,349099620.0254775,41630685.47836672,0.23938785432678011,1.0945363472885468,0.047298817095938195,False
dpi_p50,0.5,2,2032-06-30,23252800.746172406,8542695.807823196,641504.6101659804,1323893181.601448,1481554104.3241463,357642315.8333007,42272190.0885327,0.24139672981868562,1.134980823533157,0.061179281328117896,False
dpi_p50,0.5,2,2032-09-30,21083241.223261088,20746890.513510816,730618.4546248286,1398066411.4203658,1502637345.5474074,378389206.34681153,43002808.54315753,0.2518167190959607,1.1822251210720565,0.07493110514430412,False
dpi_p50,0.5,2,2032-12-31,33665840.71072327,5306980.54474987,0.0,1459614122.387644,1536303186.2581306,383696186.8915614,43002808.54315753,0.24975290705873243,1.1998349842447644,0.0766357321023986,False
dpi_p50,0.5,2,2033-03-31,30588170.480658717,143014645.47402495,0.0,1369120516.939313,1566891356.7387893,526710832.36558634,43002808.54315753,0.3361501932475031,1.2099315891631064,0.07562194753338358,False
dpi_p50,0.5,2,2033-06-30,13231011.317630915,70165732.87883663,0.0,1322482979.3484907,1580122368.0564203,596876565.2444229,43002808.54315753,0.3777407226875676,1.2146904463821757,0.07277484038502513,False
dpi_p50,0.5,2,2033-09-30,4762978.684815413,56618995.44093804,869340.2497292403,1300776368.9342616,1584885346.7412357,653495560.6853609,43872148.79288677,0.4123298647621714,1.2330683311811177,0.07393975796437702,False
dpi_p50,0.5,2,2033-12-31,1469804.0999601267,136319875.3932341,14039208.319965383,1203017437.8763382,1586355150.8411958,789815436.078595,57911357.112852156,0.4978805885049007,1.2562337462063238,0.07617105510958422,False
dpi_p50,0.5,2,2034-03-31,1523563.4775586356,19967114.780420482,0.0,1216449749.073794,1587878714.3187544,809782550.8590155,57911357.112852156,0.5099775842806958,1.2760623854083977,0.07769932558048509,False
dpi_p50,0.5,2,2034-06-30,2435438.280546176,66347840.93295276,4708236.25750716,1206927063.9554396,1590314152.5993006,876130391.7919682,62619593.37035932,0.5509165534117711,1.3098402302103263,0.08221772780746484,False
dpi_p50,0.5,2,2034-09-30,5095033.977748653,32955711.117446333,5075303.979245371,1194560736.7619393,1595409186.5770493,909086102.9094145,67694897.34960468,0.5698137572216561,1.3185625715147902,0.08103707217474387,False
dpi_p50,0.5,2,2034-12-31,3413694.6068410645,38093766.03731345,0.0,1213650169.721342,1598822881.1838903,947179868.946728,67694897.34960468,0.5924232634482712,1.3515130813414595,0.08483515049024348,False
dpi_p50,0.5,2,2035-03-31,664466.7081924301,59185649.653649226,64942.002817240114,1171905102.7612357,1599487347.8920827,1006365518.6003772,67759839.35242192,0.6291800431723557,1.3618554871548634,0.08390323940156215,False
dpi_p50,0.5,2,2035-06-30,1500433.7710525345,55853538.09237728,2670453.2680612244,1112481833.474358,1600987781.6631353,1062219056.6927545,70430292.62048315,0.6634773037363858,1.3583494609234266,0.08061207681751881,False
dpi_p50,0.5,2,2035-09-30,1441701.4626509193,59974816.50745777,0.0,1003995576.098704,1602429483.1257863,1122193873.2002122,70430292.62048315,0.7003078045039459,1.3268536754275484,0.07256665330774059,False
dpi_p50,0.5,2,2035-12-31,0.0,27198170.65897519,0.0,1002790903.1134167,1602429483.1257863,1149392043.8591874,70430292.62048315,0.7172808887771589,1.3430749806065965,0.0734511812514288,False
dpi_p50,0.5,2,2036-03-31,0.0,40454011.58770547,59745550.07917341,1003976288.9081243,1602429483.1257863,1189846055.4468927,130175842.69965655,0.742526312687354,1.3690601473929622,0.07591088138692592,False
dpi_p50,0.5,2,2036-06-30,1129598.830102416,22876134.203372706,0.0,996000313.6667266,1603559081.9558887,1212722189.6502655,130175842.69965655,0.7562691037059185,1.3773876673274643,0.07544584415304778,False
dpi_p50,0.5,2,2036-09-30,0.0,56363955.90408464,0.0,913243977.5445025,1603559081.9558887,1269086145.5543501,130175842.69965655,0.7914183891537216,1.3609290406918009,0.07113431835046491,False
dpi_p50,0.5,2,2036-12-31,185037.7490292294,57337306.11556512,0.0,845133344.4243923,1603744119.704918,1326423451.6699152,130175842.69965655,0.82707923001705,1.3540544089376705,0.06858435561283238,False
dpi_p50,0.5,2,2037-03-31,0.0,30271095.872278586,8478306.211935285,820171285.3607968,1603744119.704918,1356694547.542194,138654148.91159183,0.8459544954040548,1.357364810356109,0.06778561735070976,False
dpi_p50,0.5,2,2037-06-30,0.0,28681049.883555785,368729.7497090689,786114713.6366265,1603744119.704918,1385375597.4257498,139022878.6613009,0.8638383021355382,1.3540129528031697,0.06607886373377003,False
dpi_p50,0.5,2,2037-09-30,2517798.5670998106,44899049.36512364,0.0,729214051.5799484,1606261918.2720177,1430274646.7908735,139022878.6613009,0.8904367528861871,1.3444187861304424,0.06365439303780318,False
dpi_p50,0.5,2,2037-12-31,0.0,946637.2362520008,1486.0241912786144,723663196.0503172,1606261918.2720177,1431221284.0271256,139024364.6854922,0.8910260946526098,1.3415523679946426,0.062252351593674926,False
dpi_p50,0.5,2,2038-03-31,182612.84464917483,134445099.75402057,13062775.042974522,603752082.8947058,1606444531.1166668,1565666383.781146,152087139.72846672,0.9746159008010222,1.3504471674274694,0.06255034487820932,False
dpi_p50,0.5,2,2038-06-30,1486.0241912789643,47396547.57475294,0.0,573581202.2259777,1606446017.1408582,1613062931.355899,152087139.72846672,1.004118977011638,1.361168760263511,0.0632132870222698,False
dpi_p50,0.5,2,2038-09-30,1094032.1236712735,1135608.571855129,0.0,568543978.4484135,1607540049.2645295,1614198539.9277542,152087139.72846672,1.0041420371867382,1.357815327446928,0.062090103974043465,False
dpi_p50,0.5,2,2038-12-31,728611.2330096015,44942034.22449148,0.0,523719744.35678166,1608268660.497539,1659140574.1522455,152087139.72846672,1.0316314773173336,1.3572734283298977,0.061352151305800295,False
dpi_p50,0.5,2,2039-03-31,289910.6513935141,38590287.07361461,75805.63223825855,465593327.01197296,1608558571.1489325,1697730861.22586,152162945.360705,1.055436147415655,1.3448836909262512,0.05918794387678539,False
dpi_p50,0.5,2,2039-06-30,0.0,10549938.399092473,1819.5993250381093,427923891.22413397,1608558571.1489325,1708280799.6249526,152164764.96003002,1.061994776108645,1.3280241883410415,0.05652663715900841,False
dpi_p50,0.5,2,2039-09-30,2931920.1543838354,8004782.375006249,0.0,411112909.55188274,1611490491.3033164,1716285581.9999588,152164764.96003002,1.0650299156353618,1.3201433722586082,0.05513443330451773,False
dpi_p50,0.5,2,2039-12-31,0.0,30928792.664378703,0.0,378875231.2928059,1611490491.3033164,1747214374.6643374,152164764.96003002,1.084222577851671,1.319331151769712,0.054597133731440484,False
dpi_p50,0.5,2,2040-03-31,0.0,5775858.4726009555,96401.09382319712,359103706.58436203,1611490491.3033164,1752990233.1369383,152261166.0538532,1.0878067494640828,1.3106462316219525,0.0531280057903879,False
dpi_p50,0.5,2,2040-06-30,3931174.773386794,42683081.0469614,0.0,308320426.3209096,1615421666.076703,1795673314.1838996,152261166.0538532,1.1115817943342094,1.3024424425448482,0.05184435843296542,False
dpi_p50,0.5,2,2040-09-30,0.0,20891971.806730118,1337032.5204736812,256395099.75909364,1615421666.076703,1816565285.9906297,153598198.5743269,1.124514623109169,1.2832317587916364,0.049137037689151675,False
dpi_p50,0.5,2,2040-12-31,1021715.3255549484,16576313.387548055,226636.15158790292,242253925.48542055,1616443381.402258,1833141599.3781776,153824834.7259148,1.134058650286863,1.2839271382726694,0.04900492301205539,False
dpi_p50,0.5,2,2041-03-31,100020.24044479018,10034800.879231159,0.0,228221422.25376996,1616543401.6427028,1843176400.2574089,153824834.7259148,1.1401960494128431,1.2813747038318062,0.04847105865833379,False
dpi_p50,0.5,2,2041-06-30,0.0,2749722.528797579,149.42049472756273,215300671.044667,1616543401.6427028,1845926122.7862065,153824984.14640954,1.141897038403305,1.275082866155212,0.04749025114710437,False
dpi_p50,0.5,2,2041-09-30,0.0,4400666.5053972,94.35877047872977,203402042.090881,1616543401.6427028,1850326789.2916036,153825078.50518003,1.144619307722474,1.2704445975873717,0.046728942817424346,False
dpi_p50,0.5,2,2041-12-31,20823.41689567271,3652.7007468047414,0.0,195249643.9912222,1616564225.0595984,1850330441.9923503,153825078.50518003,1.1446068231060436,1.2653874521491142,0.045933178403329555,False
dpi_p50,0.5,2,2042-03-31,0.0,9748090.584295249,0.0,171533901.25914323,1616564225.0595984,1860078532.5766456,153825078.50518003,1.1506369519640145,1.2567471198126314,0.04471176941545052,False
dpi_p50,0.5,2,2042-06-30,798752.8337261535,17643369.93072455,151.37626812432325,146958975.4849372,1617362977.8933246,1877721902.5073702,153825229.88144815,1.160977423233202,1.2518407467379582,0.043983667441704566,False
dpi_p50,0.5,2,2042-09-30,0.0,8199672.93948644,4662.35979248055,127899235.56844974,1617362977.8933246,1885921575.4468567,153829892.24124062,1.1660472022819144,1.245126071599823,0.04303955968702311,False
dpi_p50,0.5,2,2042-12-31,0.0,8963311.607712545,80836.3613925106,105824027.93922837,1617362977.8933246,1894884887.0545692,153910728.60263312,1.171589131787057,1.237019112184573,0.04193842476326515,False
dpi_p50,0.5,2,2043-03-31,0.0,6437005.464281681,335181.29022406245,94413578.25103877,1617362977.8933246,1901321892.518851,154245909.8928572,1.1755690704602337,1.233944079373827,0.041477626767214226,False
dpi_p50,0.5,2,2043-06-30,0.0,602384.4371792753,0.0,81850415.16419834,1617362977.8933246,1901924276.9560304,154245909.8928572,1.1759415189739024,1.2265488447770512,0.04049263153845717,False
dpi_p50,0.5,2,2043-09-30,0.0,1927041.5570376415,45903.46011125829,72465256.4782933,1617362977.8933246,1903851318.513068,154291813.35296845,1.1771329902659853,1.221937562565941,0.03985943802493608,False
dpi_p50,0.5,2,2043-12-31,0.0,6777648.514161445,4198.361799158489,58910043.020044535,1617362977.8933246,1910628967.0272293,154296011.7147676,1.1813235452661928,1.217747059236308,0.0392863314702373,False
dpi_p50,0.5,2,2044-03-31,0.0,6235709.968990216,0.0,48116937.321380444,1617362977.8933246,1916864676.9962196,154296011.7147676,1.1851790248673846,1.2149292652148262,0.03889494141172534,False
dpi_p50,0.5,2,2044-06-30,0.0,1347147.1364489608,0.0,43149724.995583266,1617362977.8933246,1918211824.1326685,154296011.7147676,1.186011953007117,1.2126910136665785,0.038584513551533584,False
dpi_p50,0.5,2,2044-09-30,0.0,3280155.034372641,0.0,39959839.96193752,1617362977.8933246,1921491979.167041,154296011.7147676,1.188040041370216,1.2127468267412937,0.03856007496724245,False
dpi_p50,0.5,2,2044-12-31,0.0,6974272.675425319,0.0,26844471.7204209,1617362977.8933246,1928466251.8424664,154296011.7147676,1.1923521672014314,1.2089498463169672,0.03806956799243533,False
dpi_p50,0.5,2,2045-03-31,0.0,496029.541098449,0.0,20353779.947121445,1617362977.8933246,1928962281.3835647,154296011.7147676,1.1926588575040278,1.2052434042169944,0.03759996437048352,False
dpi_p50,0.5,2,2045-06-30,0.0,1863010.3033595912,596.7531115539634,14911493.749054557,1617362977.8933246,1930825291.6869242,154296608.46787915,1.1938107388867625,1.2030303722979818,0.03731698655107085,False
dpi_p50,0.5,2,2045-09-30,0.0,157149.3224311064,9083.166278981495,11957786.02677339,1617362977.8933246,1930982441.0093553,154305691.63415813,1.1939079028039405,1.201301287090719,0.03709740896702318,True
dpi_p90,0.9,8,2025-12-31,0.0,0.0,0.0,0.0,0.0,0.0,0.0,,,,False
dpi_p90,0.9,8,2026-03-31,0.0,0.0,0.0,0.0,0.0,0.0,0.0,,,,False
dpi_p90,0.9,8,2026-06-30,0.0,0.0,0.0,0.0,0.0,0.0,0.0,,,,False
dpi_p90,0.9,8,2026-09-30,0.0,0.0,0.0,0.0,0.0,0.0,0.0,,,,False
dpi_p90,0.9,8,2026-12-31,7802662.563890275,0.0,0.0,6223883.062468905,7802662.563890275,0.0,0.0,0.0,0.797661440758984,,False
dpi_p90,0.9,8,2027-03-31,15999401.86724471,0.0,0.0,15154199.216413604,23802064.431134984,0.0,0.0,0.0,0.6366758337394764,,False
dpi_p90,0.9,8,2027-06-30,29880857.78831869,0.0,0.0,37385900.190316826,53682922.21945368,0.0,0.0,0.0,0.6964207357692775,,False
dpi_p90,0.9,8,2027-09-30,19380533.220492173,0.0,0.0,46932158.92948138,73063455.43994585,0.0,0.0,0.0,0.6423479241008118,-0.8338353245450673,False
dpi_p90,0.9,8,2027-12-31,43794174.13219151,0.0,0.0,88801753.17559528,116857629.57213736,0.0,0.0,0.0,0.7599140381396928,-0.6061336191411123,False
dpi_p90,0.9,8,2028-03-31,54226558.334443174,4171254.6355816266,0.0,133076189.9906112,171084187.90658054,4171254.6355816266,0.0,0.024381298392457604,0.8022216798967765,-0.45738850754979266,False
dpi_p90,0.9,8,2028-06-30,71457805.52534157,0.0,0.0,201260104.27842832,242541993.4319221,4171254.6355816266,0.0,0.017198071874314148,0.846992951641883,-0.3272850023533042,False
dpi_p90,0.9,8,2028-09-30,86352544.24676469,224775.7208555519,0.0,263958369.6005574,328894537.6786868,4396030.356437178,0.0,0.013366078948784112,0.8159284184256144,-0.3518670817354357,False
dpi_p90,0.9,8,2028-12-31,76976940.99321929,234713.05623874924,0.0,334599471.86319745,405871478.6719061,4630743.412675927,0.0,0.011409383649791457,0.8358069810322802,-0.2664730740257778,False
dpi_p90,0.9,8,2029-03-31,60066674.036115944,340704.55742709385,0.0,406504852.4690678,465938152.70802206,4971447.970103022,0.0,0.010669759368725395,0.8831135592732208,-0.15745331094234105,False
dpi_p90,0.9,8,2029-06-30,119608289.37941141,26813.675061303904,0.0,497701571.8096669,585546442.0874335,4998261.645164326,0.0,0.008536063556881775,0.8585140260826114,-0.1833456195761432,False
dpi_p90,0.9,8,2029-09-30,105171921.40925723,144170.75153270699,0.0,594098656.5434115,690718363.4966908,5142432.396697033,0.0,0.007445049485385038,0.8675621217112458,-0.15482030849173833,False
dpi_p90,0.9,8,2029-12-31,38909781.90898233,932952.6980438902,0.0,656859609.8426852,729628145.405673,6075385.0947409235,0.0,0.00832668686507839,0.9085929580866626,-0.08714023287960018,False
dpi_p90,0.9,8,2030-03-31,53229437.176441625,325171.7584315264,0.0,710438810.8120832,782857582.5821147,6400556.85317245,0.0,0.008175889198213252,0.9156702107947785,-0.07032039404642396,False
dpi_p90,0.9,8,2030-06-30,121530638.75357887,8852679.637681417,0.0,840923946.0465823,904388221.3356936,15253236.490853868,0.0,0.01686580622238348,0.9466920978614092,-0.04246939143603706,False
dpi_p90,0.9,8,2030-09-30,79310958.0567065,1586208.5610624098,0.0,927088807.6057903,983699179.3924001,16839445.05191628,0.0,0.01711849049454069,0.9595700316033008,-0.02923965020133089,False
dpi_p90,0.9,8,2030-12-31,66449730.9629333,8696697.71880621,0.0,971645795.8590542,1050148910.3553334,25536142.77072249,0.0,0.02431668739444005,0.9495624180501844,-0.03325966665090374,False
dpi_p90,0.9,8,2031-03-31,108975413.4037061,15656903.23822451,0.0,1106960428.355794,1159124323.7590396,41193046.008947,0.0,0.03553807401380205,0.9905352263174667,-0.005865910981194655,False
dpi_p90,0.9,8,2031-06-30,77111314.62869608,8171817.901204061,0.0,1223816130.8730912,1236235638.3877358,49364863.910151064,0.0,0.03993159748616481,1.0298853675207822,0.016909646269355982,False
dpi_p90,0.9,8,2031-09-30,77478541.04048587,67714141.48639265,0.0,1241786801.4021084,1313714179.4282217,117079005.39654371,0.0,0.08912060722942104,1.0343694451026495,0.018104495897993123,False
dpi_p90,0.9,8,2031-12-31,65800883.4000343,12197718.469311766,0.0,1322880158.2681742,1379515062.828256,129276723.86585549,0.0,0.09371171605826091,1.0526575035410233,0.02571340242381861,False
dpi_p90,0.9,8,2032-03-31,41035790.23637633,48464392.40172255,0.0,1348227478.2410545,1420550853.0646322,177741116.26757804,0.0,0.12512126256101808,1.0742090585610342,0.03318979120276755,False
dpi_p90,0.9,8,2032-06-30,42792293.26856247,17676615.75398019,0.0,1415065205.4018044,1463343146.3331947,195417732.02155823,0.0,0.13354197374090324,1.100550435800972,0.04154595818309492,False
dpi_p90,0.9,8,2032-09-30,27748471.56898132,11475227.853171017,0.0,1417593272.2479243,1491091617.9021761,206892959.87472925,0.0,0.13875268118387515,1.0894610449277093,0.03456304637207318,False
dpi_p90,0.9,8,2032-12-31,46317113.84543169,83764084.56961815,2294865.610830844,1394308625.060328,1537408731.747608,290657044.4443474,2294865.610830844,0.18905645482704578,1.095977689413365,0.035009577690412574,False
dpi_p90,0.9,8,2033-03-31,20413652.623939555,36379970.04884406,0.0,1395258016.8776054,1557822384.3715475,327037014.4931914,2294865.610830844,0.20993215771843196,1.1055785618753966,0.036060278724134434,False
dpi_p90,0.9,8,2033-06-30,13029348.46962354,180804836.78633845,13051143.38902503,1255959909.9231174,1570851732.841171,507841851.27952987,15346008.999855874,0.32329076045961735,1.1228314705503688,0.03915350660560868,False
dpi_p90,0.9,8,2033-09-30,14601365.352372974,41226539.696081504,587732.0364190583,1283940923.5629995,1585453098.193544,549068390.9756113,15933741.036274932,0.34631638841995177,1.1561422514656101,0.04664634767473175,False
dpi_p90,0.9,8,2033-12-31,0.0,46871203.03532295,0.0,1292159528.9391627,1585453098.193544,595939594.0109342,15933741.036274932,0.37587967420161744,1.1908892953701287,0.053162812288697237,False
dpi_p90,0.9,8,2034-03-31,0.0,71121457.67575747,1425469.854987462,1273910728.6773562,1585453098.193544,667061051.6866918,17359210.891262393,0.4207384327210545,1.2242379056028716,0.05857320935233001,False
dpi_p90,0.9,8,2034-06-30,2013201.891406525,57765295.98600924,0.0,1310684042.7057738,1587466300.0849504,724826347.672701,17359210.891262393,0.4565932187876449,1.2822384892640228,0.06872634957616486,False
dpi_p90,0.9,8,2034-09-30,0.0,1386973.7923605544,0.0,1451617650.3799956,1587466300.0849504,726213321.4650615,17359210.891262393,0.45746692161351676,1.371891152415969,0.0834516028925284,False
dpi_p90,0.9,8,2034-12-31,0.0,74581651.89507753,0.0,1457867641.4381166,1587466300.0849504,800794973.3601391,17359210.891262393,0.5044484870748349,1.4228098036962344,0.08911159929428158,False
dpi_p90,0.9,8,2035-03-31,0.0,169668723.53168994,0.0,1298940726.2476087,1587466300.0849504,970463696.891829,17359210.891262393,0.6113286920420902,1.4295764407836529,0.08701025033358303,False
dpi_p90,0.9,8,2035-06-30,54572.28317610487,165236632.34656388,0.0,1121733118.0055327,1587520872.3681266,1135700329.2383928,17359210.891262393,0.7153923762553452,1.421986624891729,0.08307968992274695,False
dpi_p90,0.9,8,2035-09-30,0.0,34462344.364613906,0.0,1040222046.3773988,1587520872.3681266,1170162673.6030068,17359210.891262393,0.7371006542153107,1.392350021000445,0.07622440386990725,False
dpi_p90,0.9,8,2035-12-31,0.0,89528119.6311845,206792.08937171331,990417357.8878981,1587520872.3681266,1259690793.2341914,17566002.98063411,0.7934955786471604,1.417372325798509,0.07815705822212371,False
dpi_p90,0.9,8,2036-03-31,284168.21993786475,82405396.03731082,0.0,880280245.8434796,1587805040.5880644,1342096189.2715023,17566002.98063411,0.8452525057953206,1.3996532183144446,0.07384433840082505,False
dpi_p90,0.9,8,2036-06-30,0.0,70748676.95750888,0.0,825679623.4164236,1587805040.5880644,1412844866.229011,17566002.98063411,0.8898100397173103,1.4098232669776432,0.07387786824455789,False
dpi_p90,0.9,8,2036-09-30,81059.595895053,41345720.526872456,0.0,776675789.9043627,1587886100.1839595,1454190586.7558835,17566002.98063411,0.915802831567965,1.4049284620614766,0.07189140446337572,False
dpi_p90,0.9,8,2036-12-31,0.0,50000654.57358466,0.0,739208956.4735796,1587886100.1839595,1504191241.329468,17566002.98063411,0.9472916484092938,1.412821862690999,0.07179115013540172,False
dpi_p90,0.9,8,2037-03-31,73206.20839574323,41378179.372588456,0.0,707206553.1965146,1587959306.3923552,1545569420.7020564,17566002.98063411,0.9733054332565969,1.4186610228801115,0.07150649518365582,False
dpi_p90,0.9,8,2037-06-30,2093242.611128696,19594320.109675612,0.0,694719937.1134346,1590052549.003484,1565163740.811732,17566002.98063411,0.984347178835473,1.4212635169457,0.07092184770488308,False
dpi_p90,0.9,8,2037-09-30,0.0,12123010.379157213,0.0,701083278.6248108,1590052549.003484,1577286751.1908894,17566002.98063411,0.9919714616849643,1.432889769110837,0.07142010249315145,False
dpi_p90,0.9,8,2037-12-31,0.0,29052123.745996915,0.0,664953650.2388589,1590052549.003484,1606338874.9368863,17566002.98063411,1.0102426337693111,1.428438655438908,0.06994665979352954,False
dpi_p90,0.9,8,2038-03-31,227281.71917920807,46958523.6021286,0.0,623975635.443423,1590279830.7226632,1653297398.5390148,17566002.98063411,1.0396267163796669,1.4319951683896965,0.06954238782828182,False
dpi_p90,0.9,8,2038-06-30,0.0,35894761.265367754,0.0,561864317.4781942,1590279830.7226632,1689192159.8043826,17566002.98063411,1.062198065504466,1.415509669301182,0.0668391023418814,False
dpi_p90,0.9,8,2038-09-30,0.0,23785979.264355846,0.0,530775856.5566859,1590279830.7226632,1712978139.0687385,17566002.98063411,1.077155168527993,1.4109177216979518,0.06563238691444495,False
dpi_p90,0.9,8,2038-12-31,0.0,106708634.25492862,0.0,442232475.4731606,1590279830.7226632,1819686773.323667,17566002.98063411,1.1442557078126028,1.4223403989025973,0.06631641624945293,False
dpi_p90,0.9,8,2039-03-31,0.0,34261272.06108676,0.0,415210666.7960155,1590279830.7226632,1853948045.3847537,17566002.98063411,1.1657998860126857,1.4268927193458816,0.06632905735788841,False
dpi_p90,0.9,8,2039-06-30,266636.5644539596,39376118.32924864,106049.23798852431,369241451.9626481,1590546467.2871172,1893324163.7140024,17672052.218622632,1.190360799042427,1.4225083405049768,0.06540396387793701,False
dpi_p90,0.9,8,2039-09-30,0.0,21652017.292637333,0.0,369430892.38448757,1590546467.2871172,1914976181.0066397,17672052.218622632,1.2039737413474498,1.4362403867945328,0.06646390716960393,False
dpi_p90,0.9,8,2039-12-31,0.0,81204558.34607089,570604.7046743489,282243117.988781,1590546467.2871172,1996180739.3527107,18242656.92329698,1.2550282436937885,1.4324786507040177,0.06568076338882822,False
dpi_p90,0.9,8,2040-03-31,0.0,17126823.586688302,0.0,267655522.87000617,1590546467.2871172,2013307562.939399,18242656.92329698,1.2657961300391025,1.4340751010562318,0.06555416887000198,False
dpi_p90,0.9,8,2040-06-30,0.0,15784455.756602671,0.0,254230841.08515054,1590546467.2871172,2029092018.6960018,18242656.92329698,1.2757200499504304,1.4355587257225215,0.06543376832738723,False
dpi_p90,0.9,8,2040-09-30,0.0,12814680.040552724,0.0,240441582.3551253,1590546467.2871172,2041906698.7365544,18242656.92329698,1.2837768281107125,1.4349459937404532,0.06511980085494107,False
dpi_p90,0.9,8,2040-12-31,0.0,16304933.561273608,0.0,221134395.21268338,1590546467.2871172,2058211632.297828,18242656.92329698,1.2940279800868528,1.4330584326770603,0.06470128247334983,False
dpi_p90,0.9,8,2041-03-31,0.0,31588694.653590806,0.0,181355105.27070737,1590546467.2871172,2089800326.9514189,18242656.92329698,1.3138882578613649,1.4279088847343613,0.06399877791368935,False
dpi_p90,0.9,8,2041-06-30,0.0,25310830.120382644,0.0,154042946.40238622,1590546467.2871172,2115111157.0718014,18242656.92329698,1.3298015497022209,1.4266506198618163,0.0637105252758493,False
dpi_p90,0.9,8,2041-09-30,0.0,9698858.441671863,0.0,130177940.78182508,1590546467.2871172,2124810015.5134733,18242656.92329698,1.3358993649129984,1.4177441543983762,0.06272884708825155,False
dpi_p90,0.9,8,2041-12-31,0.0,1736602.2796007623,0.0,120358778.95961773,1590546467.2871172,2126546617.7930741,18242656.92329698,1.3369911923542697,1.4126625301209084,0.062134552685013555,False
dpi_p90,0.9,8,2042-03-31,0.0,4084537.1295969244,0.0,116688954.39143276,1590546467.2871172,2130631154.922671,18242656.92329698,1.3395592010315411,1.4129232660188793,0.0620537809837457,False
dpi_p90,0.9,8,2042-06-30,0.0,3134714.502859599,0.0,104411700.85162863,1590546467.2871172,2133765869.4255307,18242656.92329698,1.341530042228156,1.40717521701498,0.061425792118828926,False
dpi_p90,0.9,8,2042-09-30,0.0,6671075.6681038495,28529.671362659137,90580420.63696223,1590546467.2871172,2140436945.0936346,18271186.59465964,1.3457242457961174,1.4026734909140288,0.060926179373916534,False
dpi_p90,0.9,8,2042-12-31,0.0,1340191.3254061048,0.0,79498157.63643074,1590546467.2871172,2141777136.4190407,18271186.59465964,1.3465668438295415,1.3965485069066506,0.06029578145543757,False
dpi_p90,0.9,8,2043-03-31,0.0,640148.1273113523,0.0,71373470.55448171,1590546467.2871172,2142417284.5463521,18271186.59465964,1.346969314389489,1.3918428669844147,0.05980802813214392,False
dpi_p90,0.9,8,2043-06-30,0.0,1555617.9237319236,0.0,61708125.31855524,1590546467.2871172,2143972902.4700842,18271186.59465964,1.3479473542994989,1.386744161929902,0.05929482792730989,False
dpi_p90,0.9,8,2043-09-30,0.0,3673387.9882017886,0.0,53104226.260324076,1590546467.2871172,2147646290.458286,18271186.59465964,1.3502568674534698,1.383644276971219,0.0589702136346536,False
dpi_p90,0.9,8,2043-12-31,0.0,3460884.5229509757,0.0,44499135.224483415,1590546467.2871172,2151107174.981237,18271186.59465964,1.352432776547691,1.3804100385388998,0.05864390348469828,False
dpi_p90,0.9,8,2044-03-31,0.0,4303763.445227817,0.0,37589601.01683377,1590546467.2871172,2155410938.4264646,18271186.59465964,1.3551386160398047,1.3787717520656562,0.05846684705036355,False
dpi_p90,0.9,8,2044-06-30,0.0,612726.2176744248,0.0,32433223.07739281,1590546467.2871172,2156023664.644139,18271186.59465964,1.3555238460411132,1.3759150912794316,0.05819226928493826,False
dpi_p90,0.9,8,2044-09-30,0.0,269027.8314083804,0.0,27014510.569318186,1590546467.2871172,2156292692.4755473,18271186.59465964,1.3556929878027288,1.372677408644828,0.057891424745372455,False
dpi_p90,0.9,8,2044-12-31,0.0,3020237.028057116,638737.8798512619,21111629.784661442,1590546467.2871172,2159312929.5036044,18909924.474510904,1.357591855324159,1.3708650480405404,0.057717988511685525,False
dpi_p90,0.9,8,2045-03-31,0.0,2290988.5017023496,0.0,15440911.433714516,1590546467.2871172,2161603918.0053067,18909924.474510904,1.3590322335519074,1.3687401620854578,0.05752502663590009,False
dpi_p90,0.9,8,2045-06-30,0.0,128206.90121721123,0.0,11967666.663209341,1590546467.2871172,2161732124.9065237,18909924.474510904,1.359112839119776,1.3666370874893452,0.05733981480604611,False
dpi_p90,0.9,8,2045-09-30,0.0,902753.794923356,0.0,9157570.655743062,1590546467.2871172,2162634878.701447,18909924.474510904,1.3596804137323322,1.3654379133364543,0.05723300639932727,True
dpi_p95,0.95,1,2025-12-31,0.0,0.0,0.0,0.0,0.0,0.0,0.0,,,,False
dpi_p95,0.95,1,2026-03-31,0.0,0.0,0.0,0.0,0.0,0.0,0.0,,,,False
dpi_p95,0.95,1,2026-06-30,0.0,0.0,0.0,0.0,0.0,0.0,0.0,,,,False
dpi_p95,0.95,1,2026-09-30,0.0,0.0,0.0,0.0,0.0,0.0,0.0,,,,False
dpi_p95,0.95,1,2026-12-31,18229851.21335229,0.0,0.0,20028304.559423227,18229851.21335229,0.0,0.0,0.0,1.0986543074336053,,False
dpi_p95,0.95,1,2027-03-31,13953695.06659128,0.0,0.0,30562214.116779055,32183546.27994357,0.0,0.0,0.0,0.9496223272270368,-0.31460048267248597,False
dpi_p95,0.95,1,2027-06-30,12916239.090225888,0.0,0.0,37135233.09304672,45099785.37016946,0.0,0.0,0.0,0.823401548106019,-0.5236255429787349,False
dpi_p95,0.95,1,2027-09-30,32453694.11377923,0.0,0.0,65955631.0315743,77553479.4839487,0.0,0.0,0.0,0.8504535382609776,-0.43691184795360793,False
dpi_p95,0.95,1,2027-12-31,22007801.300613716,0.0,0.0,84131751.15589058,99561280.78456241,0.0,0.0,0.0,0.8450247977217237,-0.33617828010328765,False
dpi_p95,0.95,1,2028-03-31,64012329.252037115,51424.30710533062,0.0,141250795.03949517,163573610.03659952,51424.30710533062,0.0,0.00031438021752912623,0.8638448421782964,-0.3178713113939158,False
dpi_p95,0.95,1,2028-06-30,65289288.594407625,0.0,0.0,208038757.72569588,228862898.63100713,51424.30710533062,0.0,0.00022469481690975786,0.9092351065967336,-0.18930847797241512,False
dpi_p95,0.95,1,2028-09-30,81805007.39585271,0.0,0.0,289105665.33678216,310667906.0268599,51424.30710533062,0.0,0.00016552822518102193,0.9307594509581797,-0.1292716817234049,False
dpi_p95,0.95,1,2028-12-31,100527199.43196076,183112.1663167069,0.0,410489117.2662002,411195105.45882064,234536.4734220375,0.0,0.0005703775903663456,0.9988534597981843,-0.0019246092453728634,False
dpi_p95,0.95,1,2029-03-31,75201988.90430138,722019.5566294238,0.0,452623621.1719471,486397094.363122,956556.0300514612,0.0,0.001966615428293122,0.9325306060800113,-0.09573606780539426,False
dpi_p95,0.95,1,2029-06-30,76519498.86367235,1383588.6275534183,0.0,542267502.8342779,562916593.2267944,2340144.6576048797,0.0,0.004157178320487091,0.9674748515939819,-0.03943708930333217,False
dpi_p95,0.95,1,2029-09-30,48085854.07420128,3112427.0364456726,0.0,563149166.1596894,611002447.3009956,5452571.694050552,0.0,0.008923976848433922,0.9306046814795033,-0.07083818163181188,False
dpi_p95,0.95,1,2029-12-31,73638553.29490995,2304049.241775705,21035.994470503716,620989354.6817548,684641000.5959055,7756620.935826257,21035.994470503716,0.011329471838635082,0.9183586362346488,-0.07518818675832323,False
dpi_p95,0.95,1,2030-03-31,62702436.12179215,24984006.989882868,694447.3046211512,657137554.0557371,747343436.7176977,32740627.925709125,715483.299091655,0.043809346971058774,0.923107299920052,-0.06348075268031206,False
dpi_p95,0.95,1,2030-06-30,111034012.36660624,11530545.622548882,0.0,786729567.4777104,858377449.084304,44271173.54825801,715483.299091655,0.05157541544862975,0.9681064453783816,-0.02504408897200503,False
dpi_p95,0.95,1,2030-09-30,67558178.58619994,55918792.70735772,10182384.070312217,792120333.3258302,925935627.6705039,100189966.25561573,10897867.369403873,0.10820402980677674,0.963685026167906,-0.026013237632621936,False
dpi_p95,0.95,1,2030-12-31,121921663.50360292,9032514.831050793,0.0,932726232.1570837,1047857291.1741068,109222481.08666652,10897867.369403873,0.1042341185260872,0.9943612761202091,-0.0038978859251185827,False
dpi_p95,0.95,1,2031-03-31,86522495.64286524,27179966.93678247,0.0,1019218594.4723891,1134379786.816972,136402448.023449,10897867.369403873,0.12024407487565453,1.018724994861261,0.012024628559395963,False
dpi_p95,0.95,1,2031-06-30,76915470.23770936,2028617.6968472651,0.0,1131751155.5624897,1211295257.0546813,138431065.72029626,10897867.369403873,0.11428350347618599,1.04861487229075,0.028768366968177417,False
dpi_p95,0.95,1,2031-09-30,84946452.5145717,5642912.13403417,189806.8722179,1226781543.1232743,1296241709.569253,144073977.85433042,11087674.241621772,0.11114746330929813,1.0575616498508957,0.03194402094112714,False
dpi_p95,0.95,1,2031-12-31,54838293.21366607,27627775.211889073,60998.04006489259,1342751578.182887,1351080002.782919,171701753.0662195,11148672.281686664,0.1270848156382692,1.1209205436611271,0.060178447365924925,False
dpi_p95,0.95,1,2032-03-31,53341278.17173736,2801749.859935282,0.0,1409978369.880393,1404421280.9546564,174503502.9261548,11148672.281686664,0.12425296119661182,1.1282098144578778,0.05924470769841361,False
dpi_p95,0.95,1,2032-06-30,26330237.22912487,46297540.282870814,0.0,1445080543.1149292,1430751518.1837811,220801043.20902562,11148672.281686664,0.15432522027955908,1.1643402541614294,0.06874438252327975,False
dpi_p95,0.95,1,2032-09-30,45949349.37089498,23347719.566247992,0.0,1515360889.246635,1476700867.554676,244148762.77527362,11148672.281686664,0.1653339333236586,1.1915139285693968,0.07437961226482181,False
dpi_p95,0.95,1,2032-12-31,27335829.540172573,64515346.98002803,0.0,1537174419.3247194,1504036697.0948486,308664109.75530165,11148672.281686664,0.2052237889883324,1.2272563113954509,0.08114360214897742,False
dpi_p95,0.95,1,2033-03-31,23091144.639452264,167579382.1063934,34016322.16137602,1450820248.939094,1527127841.7343009,476243491.86169505,45164994.443062685,0.31185568021655835,1.2618876351650405,0.0866219880533228,False
dpi_p95,0.95,1,2033-06-30,13475701.134372678,146296991.9200399,1194784.8185794875,1421191545.6559706,1540603542.8686736,622540483.781735,46359779.26164217,0.4040887006027108,1.3265788196437507,0.09927190830285626,False
dpi_p95,0.95,1,2033-09-30,17015671.111448966,39935197.77377267,0.0,1417838804.6379972,1557619213.9801226,662475681.5555077,46359779.26164217,0.4253129876734827,1.335573205262254,0.09693808422029149,False
dpi_p95,0.95,1,2033-12-31,3725483.4521607733,19326662.564530294,55275.64785039547,1427339489.972639,1561344697.4322834,681802344.1200379,46415054.90949257,0.43667637597341513,1.3508495834143965,0.095702971533555,False
dpi_p95,0.95,1,2034-03-31,22987499.461135764,77706193.51022689,5152428.768169968,1468471522.173319,1584332196.8934193,759508537.6302648,51567483.67766254,0.4793871759467615,1.4062581472321516,0.10432203318061462,False
dpi_p95,0.95,1,2034-06-30,11066354.406157272,91216906.89714128,0.0,1423197464.7047098,1595398551.2995765,850725444.527406,51567483.67766254,0.533236941850313,1.4253008487313896,0.10408332923322815,False
dpi_p95,0.95,1,2034-09-30,7298625.235003365,34004738.75071603,0.0,1375849231.9930649,1602697176.53458,884730183.278122,51567483.67766254,0.5520257951605825,1.4104844311007696,0.09734318992959834,False
dpi_p95,0.95,1,2034-12-31,81286.77403892785,56889469.03101329,0.0,1377989492.4797223,1602778463.308619,941619652.3091352,51567483.67766254,0.587492079451422,1.4472425215899665,0.10031817834406265,False
dpi_p95,0.95,1,2035-03-31,1539517.2970064187,39339880.54203762,1948605.4260430788,1317760504.302737,1604317980.6056254,980959532.8511728,53516089.103705615,0.611449565927612,1.43283318203923,0.09438185454636659,False
dpi_p95,0.95,1,2035-06-30,83103.776926816,119470036.31365263,0.0,1229158117.7060132,1604401084.3825521,1100429569.1648254,53516089.103705615,0.6858818408168315,1.4519983248249748,0.09446618391601824,False
dpi_p95,0.95,1,2035-09-30,3068844.865571298,66107688.295261815,284644.97674366354,1185775624.8319077,1607469929.2481234,1166537257.4600873,53800734.080449276,0.7256977167875995,1.463363537626028,0.09361962871876767,False
dpi_p95,0.95,1,2035-12-31,1449330.8400040597,28806154.4357554,244238.65757795295,1154858421.4606512,1608919260.0881274,1195343411.8958428,54044972.73802723,0.7429480406806547,1.4607332335792682,0.09073092395924764,False
dpi_p95,0.95,1,2036-03-31,9005769.104377966,98714464.63950244,1435250.0144307273,1094781027.9322982,1617925029.1925054,1294057876.5353453,55480222.752457954,0.7998256119328349,1.4764830640267033,0.09112578610296984,False
dpi_p95,0.95,1,2036-06-30,1069977.4118174883,32701580.705823,0.0,1093852085.0915172,1618995006.604323,1326759457.2411683,55480222.752457954,0.8194957067989426,1.4951321853732407,0.0917002506026029,False
dpi_p95,0.95,1,2036-09-30,0.0,35709153.44532909,6070575.223791019,1082770268.9750838,1618995006.604323,1362468610.6864974,61550797.97624897,0.8415520771395932,1.5103436821526834,0.09171414482097051,False
dpi_p95,0.95,1,2036-12-31,1323294.3063709214,20691078.34619231,72775.7139842849,1096951856.378224,1620318300.910694,1383159689.0326898,61623573.69023326,0.8536345533191164,1.5306323109582705,0.09245189217547436,False
dpi_p95,0.95,1,2037-03-31,383164.6706060417,81638272.1878928,0.0,1051487391.9845986,1620701465.5813,1464797961.2205825,61623573.69023326,0.9038049217134512,1.5525902867636763,0.09332764140809335,False
dpi_p95,0.95,1,2037-06-30,250269.3749538522,15784721.563073356,10713.041662910538,991792653.325417,1620951734.9562538,1480582682.783656,61634286.73189617,0.9134033116807231,1.5252615378926118,0.08833783516490656,False
dpi_p95,0.95,1,2037-09-30,157255.25571702546,66131563.99410304,1722012.326753916,968295266.0430474,1621108990.2119708,1546714246.7777588,63356299.058650084,0.954108734277956,1.5514129697670433,0.08985020260012255,False
dpi_p95,0.95,1,2037-12-31,102062.55700168759,145068641.0305368,0.0,833499896.3136089,1621211052.7689724,1691782887.8082957,63356299.058650084,1.0435303194601278,1.5576520896577954,0.08908852653668464,False
dpi_p95,0.95,1,2038-03-31,738926.8283454017,21539497.306916445,0.0,869643057.4061093,1621949979.5973177,1713322385.1152122,63356299.058650084,1.056334909625622,1.5925062270801935,0.09167934655590704,False
dpi_p95,0.95,1,2038-06-30,64971.355988954245,32670750.272410292,0.0,774203501.8441995,1622014950.9533067,1745993135.3876226,63356299.058650084,1.0764346742682305,1.5537443941257305,0.08637898501737273,False
dpi_p95,0.95,1,2038-09-30,0.0,41167965.71307969,31975.01900717984,749906307.945384,1622014950.9533067,1787161101.1007023,63388274.07765726,1.1018154302772205,1.5641455139208031,0.08641310340844865,False
dpi_p95,0.95,1,2038-12-31,68692.57716082803,148436516.564087,0.0,582611947.8821359,1622083643.5304675,1935597617.6647892,63388274.07765726,1.1932785497127374,1.5524535837535716,0.08423721407927498,False
dpi_p95,0.95,1,2039-03-31,0.0,6922627.72319175,0.0,586055329.3834168,1622083643.5304675,1942520245.387981,63388274.07765726,1.1975462875392064,1.5588441353541727,0.08415298576137864,False
dpi_p95,0.95,1,2039-06-30,271096.3901307136,46533733.83898756,0.0,513136700.21479434,1622354739.9205983,1989053979.2269685,63388274.07765726,1.2260290122025455,1.5423203186525198,0.08181718731079368,False
dpi_p95,0.95,1,2039-09-30,0.0,2909915.122894358,0.0,482572096.31948406,1622354739.9205983,1991963894.3498628,63388274.07765726,1.2278226489770998,1.5252743002374785,0.07952734697630681,False
dpi_p95,0.95,1,2039-12-31,0.0,15985332.054470723,146285.12630999388,458253603.3186003,1622354739.9205983,2007949226.4043336,63534559.20396725,1.2376758158962244,1.520137839794295,0.0784652430406173,False
dpi_p95,0.95,1,2040-03-31,0.0,18349375.49215997,0.0,453540185.58863306,1622354739.9205983,2026298601.8964937,63534559.20396725,1.248986150831393,1.5285428805826373,0.07875407469781537,False
dpi_p95,0.95,1,2040-06-30,0.0,11112727.870965483,768.1391556659163,426841875.4981074,1622354739.9205983,2037411329.7674592,63535327.343122914,1.2558359029833233,1.5189361146663722,0.07735809208831534,False
dpi_p95,0.95,1,2040-09-30,242386.6505813098,12505926.716236945,0.0,374851299.80334157,1622597126.5711796,2049917256.483696,63535327.343122914,1.2633556555196888,1.4943749847572951,0.0746016445580081,False
dpi_p95,0.95,1,2040-12-31,0.0,10564758.88350169,0.0,365104407.52086365,1622597126.5711796,2060482015.3671978,63535327.343122914,1.2698666733875847,1.4948790326122006,0.07425468769235055,False
dpi_p95,0.95,1,2041-03-31,0.0,1163775.5703770274,0.0,364589837.86249804,1622597126.5711796,2061645790.9375749,63535327.343122914,1.2705839035313582,1.4952791355714503,0.0739244157738762,False
dpi_p95,0.95,1,2041-06-30,0.0,15087524.259340532,0.0,352684699.9984517,1622597126.5711796,2076733315.1969154,63535327.343122914,1.2798822832784142,1.4972404273444853,0.07373859857805065,False
dpi_p95,0.95,1,2041-09-30,0.0,13710268.97790998,0.0,358405415.6825039,1622597126.5711796,2090443584.1748254,63535327.343122914,1.2883318662053125,1.5092156640460461,0.07444193947444455,False
dpi_p95,0.95,1,2041-12-31,0.0,3357381.002189535,0.0,325995220.67886305,1622597126.5711796,2093800965.177015,63535327.343122914,1.2904010064417952,1.4913105331138568,0.07254963832158279,False
dpi_p95,0.95,1,2042-03-31,0.0,30060214.393177878,0.0,289483808.1024631,1622597126.5711796,2123861179.570193,63535327.343122914,1.3089269941320978,1.4873346859503318,0.07190658759216736,False
dpi_p95,0.95,1,2042-06-30,0.0,996056.5514421423,0.0,289028226.30636585,1622597126.5711796,2124857236.1216352,63535327.343122914,1.3095408597276488,1.4876677783406078,0.07167063266789431,False
dpi_p95,0.95,1,2042-09-30,0.0,39821325.16284857,0.0,254498962.85100988,1622597126.5711796,2164678561.284484,63535327.343122914,1.3340825802266847,1.4909292544154953,0.07168115050229174,False
dpi_p95,0.95,1,2042-12-31,0.0,3948648.6256413115,3154.435546134483,237528321.5436191,1622597126.5711796,2168627209.9101253,63538481.77866905,1.33651611629117,1.4829038533664578,0.07079585136627176,False
dpi_p95,0.95,1,2043-03-31,0.0,6307822.258349573,0.0,237335254.24260455,1622597126.5711796,2174935032.1684747,63538481.77866905,1.34040360145619,1.4866723519402576,0.07089940305225262,False
dpi_p95,0.95,1,2043-06-30,0.0,11489643.393989004,2.024375592779694,201728882.9711225,1622597126.5711796,2186424675.5624638,63538483.80304465,1.3474846218806922,1.4718093107807706,0.0695038257273407,False
dpi_p95,0.95,1,2043-09-30,0.0,4331487.061120729,1574.226428987394,177694099.28036377,1622597126.5711796,2190756162.6235843,63540058.02947363,1.3501540997135995,1.4596662493227024,0.06835514741681947,False
dpi_p95,0.95,1,2043-12-31,0.0,5874117.917297057,0.0,167416370.6234147,1622597126.5711796,2196630280.540881,63540058.02947363,1.353774294659778,1.4569523219604879,0.06799038024240767,False
dpi_p95,0.95,1,2044-03-31,0.0,5276849.449275874,58446.50549714348,145847601.4962188,1622597126.5711796,2201907129.990157,63598504.534970775,1.3570263954818882,1.4469116782226628,0.06705547768343456,False
dpi_p95,0.95,1,2044-06-30,0.0,829238.8660981186,0.0,138004065.75948778,1622597126.5711796,2202736368.856255,63598504.534970775,1.3575374520174377,1.44258879563168,0.06659689967535176,False
dpi_p95,0.95,1,2044-09-30,0.0,3330131.0035095136,71165.47231166385,110682519.02089056,1622597126.5711796,2206066499.8597646,63669670.007282436,1.3595897981907277,1.4278029838351405,0.0653164256684936,False
dpi_p95,0.95,1,2044-12-31,0.0,44178724.94638892,0.0,53152597.54739256,1622597126.5711796,2250245224.8061533,63669670.007282436,1.386816966427951,1.4195746957971092,0.06457630095312361,False
dpi_p95,0.95,1,2045-03-31,0.0,4965205.726531723,291548.19477216323,40798597.74511897,1622597126.5711796,2255210430.532685,63961218.2020546,1.3898770024931102,1.4150210121040068,0.06417620092644782,False
dpi_p95,0.95,1,2045-06-30,0.0,9822015.83454715,183770.78989851344,24878798.863742765,1622597126.5711796,2265032446.367232,64144988.99195311,1.3959302708452503,1.4112629732495225,0.06385090777823821,False
dpi_p95,0.95,1,2045-09-30,0.0,2599788.8691967726,0.0,16623412.489093572,1622597126.5711796,2267632235.2364287,64144988.99195311,1.3975325101359675,1.407777451543094,0.06356157146970609,True
