drini-manjani/Equity-Cashflow-projection/runs_v2/2025Q3/test_portfolio_Sentral_dpi_link_check/projection/sim_outputs/sim_portfolio_dpi_scenarios.csv
scenario_label,target_quantile,selected_sim_id,quarter_end,draw_q,rep_q,recall_q,nav,cum_draw,cum_repay,cum_recall,dpi_to_date,tvpi_to_date,irr_to_date,is_final
dpi_p05,0.05,5,2025-12-31,0.0,0.0,0.0,0.0,0.0,0.0,0.0,,,,False
dpi_p05,0.05,5,2026-03-31,0.0,0.0,0.0,0.0,0.0,0.0,0.0,,,,False
dpi_p05,0.05,5,2026-06-30,0.0,0.0,0.0,0.0,0.0,0.0,0.0,,,,False
dpi_p05,0.05,5,2026-09-30,0.0,0.0,0.0,0.0,0.0,0.0,0.0,,,,False
dpi_p05,0.05,5,2026-12-31,6632614.79867699,0.0,0.0,3316307.399338495,6632614.79867699,0.0,0.0,0.0,0.5,,False
dpi_p05,0.05,5,2027-03-31,21658543.80744441,0.0,0.0,23183124.316202745,28291158.6061214,0.0,0.0,0.0,0.8194476811277209,,False
dpi_p05,0.05,5,2027-06-30,30949547.421080187,0.0,0.0,54644939.22337374,59240706.027201585,0.0,0.0,0.0,0.9224221466618308,-0.4418222240335422,False
dpi_p05,0.05,5,2027-09-30,50494468.31691399,0.0,0.0,82931501.98676744,109735174.34411559,0.0,0.0,0.0,0.7557421991849648,-0.7973313223258836,False
dpi_p05,0.05,5,2027-12-31,41309426.62109121,569447.6195219421,0.0,106893918.415317,151044600.9652068,569447.6195219421,0.0,0.0037700627224214033,0.7114677740755075,-0.6853855453802424,False
dpi_p05,0.05,5,2028-03-31,24859959.033441547,0.0,0.0,134555489.95412734,175904559.99864835,569447.6195219421,0.0,0.0032372533124003025,0.7681718857924297,-0.4270039654428798,False
dpi_p05,0.05,5,2028-06-30,36686314.30572942,3339693.0858542956,0.0,169604923.97189307,212590874.30437776,3909140.7053762376,0.0,0.01838809270702425,0.8161877373383389,-0.28990749297348306,False
dpi_p05,0.05,5,2028-09-30,82128228.76547265,0.0,0.0,239729474.0565467,294719103.06985044,3909140.7053762376,0.0,0.013263954269193553,0.8266807689903254,-0.2787908789345889,False
dpi_p05,0.05,5,2028-12-31,78016542.4532817,0.0,0.0,319990929.4254694,372735645.52313215,3909140.7053762376,0.0,0.010487702886290317,0.8689806677229754,-0.19274832259404012,False
dpi_p05,0.05,5,2029-03-31,78133162.22256225,1373627.4278526232,0.0,379531193.06853765,450868807.7456944,5282768.133228861,0.0,0.011716863181647564,0.8534943083017952,-0.19507271709317053,False
dpi_p05,0.05,5,2029-06-30,154550710.61799642,67538.72069920301,0.0,569703246.0015149,605419518.3636909,5350306.853928064,0.0,0.0088373544156434,0.9498431012096867,-0.06693087701443313,False
dpi_p05,0.05,5,2029-09-30,50881495.249125555,2265227.5151939956,0.0,606343844.2206149,656301013.6128165,7615534.36912206,0.0,0.011603721784916868,0.9354844284179958,-0.07051474757935278,False
dpi_p05,0.05,5,2029-12-31,113674421.28208655,6609674.503070814,0.0,699904500.9859498,769975434.894903,14225208.872192875,0.0,0.01847488663600616,0.9274707704871352,-0.07380293137285415,False
dpi_p05,0.05,5,2030-03-31,59202853.78374135,3446309.5050190547,0.0,729173355.3701195,829178288.6786443,17671518.37721193,0.0,0.021312085251740942,0.9007048109490213,-0.0886348864025083,False
dpi_p05,0.05,5,2030-06-30,79689725.1421974,774937.9992111489,0.0,817820260.9043007,908868013.8208417,18446456.376423076,0.0,0.02029607830390573,0.9201189881962012,-0.06426311644267424,False
dpi_p05,0.05,5,2030-09-30,105252126.69297042,9514574.048519565,0.0,904652957.432651,1014120140.5138121,27961030.424942642,0.0,0.027571713949765323,0.919628701373663,-0.060660673403131804,False
dpi_p05,0.05,5,2030-12-31,81044943.7144903,7762708.20854073,0.0,995812692.6344235,1095165084.2283025,35723738.63348337,0.0,0.03261950106696084,0.941900400335324,-0.03983473199460025,False
dpi_p05,0.05,5,2031-03-31,101508508.54539187,35011510.8493623,0.0,1037777450.5309198,1196673592.7736943,70735249.48284566,0.0,0.05910989421843336,0.9263283711679587,-0.04801145941754745,False
dpi_p05,0.05,5,2031-06-30,60055590.321480855,7022488.977936477,0.0,1115308778.2714748,1256729183.095175,77757738.46078214,0.0,0.06187310639932308,0.9493425733887038,-0.029899331245790306,False
dpi_p05,0.05,5,2031-09-30,26958240.753882393,31576854.637329012,205.07523063875672,1156746716.8386242,1283687423.8490574,109334593.09811115,205.07523063875672,0.08517228654486474,0.9862847344414023,-0.007154374684120163,False
dpi_p05,0.05,5,2031-12-31,68858742.37644887,106694247.49198306,3302391.388981243,1137795276.2047806,1352546166.2255063,216028840.5900942,3302596.464211882,0.1597201234120953,1.0009448480216647,0.00046082265733626837,False
dpi_p05,0.05,5,2032-03-31,53254562.0496238,18660287.97645547,8750901.153017491,1173283448.3861747,1405800728.27513,234689128.5665497,12053497.617229372,0.16694338240563106,1.0015449193003756,0.000710307668522234,False
dpi_p05,0.05,5,2032-06-30,58439128.18474239,61598783.30842669,0.0,1179217937.360857,1464239856.4598725,296287911.8749764,12053497.617229372,0.20234930128955697,1.0076940896850048,0.0033526760278511647,False
dpi_p05,0.05,5,2032-09-30,16753122.041138783,32504301.737789415,7339334.1473313095,1197745572.1181574,1480992978.5010114,328792213.6127658,19392831.76456068,0.22200794898133358,1.0307528853215835,0.012313364514153623,False
dpi_p05,0.05,5,2032-12-31,37358552.2515572,99850737.08767456,0.0,1171147865.2457564,1518351530.7525685,428642950.70044035,19392831.76456068,0.2823081098274944,1.053636647076888,0.02014472439602366,False
dpi_p05,0.05,5,2033-03-31,14963552.144685501,60905216.39780939,1634301.8149881223,1138133260.1201494,1533315082.897254,489548167.09824973,21027133.579548802,0.31927434390929676,1.0615440005604304,0.021744872797805605,False
dpi_p05,0.05,5,2033-06-30,30243338.54997012,76013903.052035,2845304.455432154,1131927530.780124,1563558421.4472241,565562070.1502848,23872438.034980956,0.361714703072497,1.085657931066764,0.028658492176195177,False
dpi_p05,0.05,5,2033-09-30,10331913.935667062,37435537.25535728,1157481.7432648172,1147318708.9475784,1573890335.3828912,602997607.405642,25029919.778245773,0.38312555446180224,1.1120954726031842,0.03519430709108995,False
dpi_p05,0.05,5,2033-12-31,9706428.504496802,47183622.740305096,0.0,1125873856.1139078,1583596763.887388,650181230.1459471,25029919.778245773,0.41057246704008954,1.1215324044361035,0.03625140996530765,False
dpi_p05,0.05,5,2034-03-31,3486676.2597878305,10332611.915865242,0.0,1155700661.8226414,1587083440.1471758,660513842.0618124,25029919.778245773,0.4161809173691338,1.144372411645874,0.04067463653180525,False
dpi_p05,0.05,5,2034-06-30,0.0,131051934.5463233,354741.7909048842,1051747904.3327359,1587083440.1471758,791565776.6081357,25384661.569150656,0.4987549845109158,1.1614472398312812,0.04307808130573754,False
dpi_p05,0.05,5,2034-09-30,4271863.252978396,105230277.87166178,498876.8154187215,1008290256.9011927,1591355303.400154,896796054.4797975,25883538.384569377,0.5635423167683966,1.1971470527735104,0.04975094908550337,False
dpi_p05,0.05,5,2034-12-31,1154202.382109371,9145943.896135405,0.0,1046342818.3193555,1592509505.7822635,905941998.3759329,25883538.384569377,0.5688769800660758,1.2259172140616506,0.05426727112716001,False
dpi_p05,0.05,5,2035-03-31,124314.10657336765,53875597.48327346,10845.31181489321,1042946696.0735717,1592633819.8888369,959817595.8592064,25894383.69638427,0.6026605638238928,1.2575171184500953,0.05886765357486745,False
dpi_p05,0.05,5,2035-06-30,427704.68576655345,34234645.62830596,0.0,998565795.0612117,1593061524.5746033,994052241.4875124,25894383.69638427,0.623988606939054,1.250810471416548,0.055807852723858686,False
dpi_p05,0.05,5,2035-09-30,0.0,29179940.211026948,0.0,988637427.820906,1593061524.5746033,1023232181.6985393,25894383.69638427,0.642305501648327,1.2628951101287045,0.05644201865179832,False
dpi_p05,0.05,5,2035-12-31,134037.08860553024,31399534.811196104,2641310.059787515,944825841.5255654,1593195561.663209,1054631716.5097353,28535693.756171785,0.6619599890227899,1.254998197426546,0.053502008423335676,False
dpi_p05,0.05,5,2036-03-31,204497.23071942988,38781532.02226691,3152171.0975243044,951329593.4536741,1593400058.8939283,1093413248.5320022,31687864.85369609,0.6862138873592135,1.2832576668818823,0.057013234155121384,False
dpi_p05,0.05,5,2036-06-30,1742046.3326882976,34641451.3694427,0.0,891906043.4205315,1595142105.2266166,1128054699.901445,31687864.85369609,0.7071813202129636,1.2663202461419618,0.052892510615182256,False
dpi_p05,0.05,5,2036-09-30,1085493.2783543405,7659760.080020523,61269.057818030116,877289045.4331384,1596227598.504971,1135714459.9814653,31749133.91151412,0.711499075097547,1.2611005518887066,0.05088094942924093,False
dpi_p05,0.05,5,2036-12-31,5059808.870063517,74128951.95338139,1239.0787897441405,791937562.9466941,1601287407.3750346,1209843411.9348466,31750372.990303863,0.7555441992253745,1.2501072360039533,0.04813934031240186,False
dpi_p05,0.05,5,2037-03-31,719349.2629596906,44592970.01754037,4813.681400827002,748982206.5330553,1602006756.6379943,1254436381.952387,31755186.67170469,0.7830406312299045,1.250568126622549,0.047319382212151484,False
dpi_p05,0.05,5,2037-06-30,795407.9908592657,84944352.28835995,272680.11831453413,645682884.3867145,1602802164.6288536,1339380734.240747,32027866.790019225,0.8356494418329509,1.2384957185824146,0.044617003848394954,False
dpi_p05,0.05,5,2037-09-30,1152729.4825031655,6837011.246955553,0.0,583407717.0848131,1603954894.1113567,1346217745.4877026,32027866.790019225,0.8393114734274065,1.2030422237288605,0.03836721844286173,False
dpi_p05,0.05,5,2037-12-31,271009.3125793818,27013177.883851163,0.0,555701099.8748004,1604225903.4239361,1373230923.3715537,32027866.790019225,0.8560084464666948,1.202406730329806,0.03772397046286258,False
dpi_p05,0.05,5,2038-03-31,982292.1112183528,20331084.19296865,0.0,554640685.9148833,1605208195.5351546,1393562007.5645223,32027866.790019225,0.8681503193421758,1.2136760196579368,0.038991844259636754,False
dpi_p05,0.05,5,2038-06-30,726451.4811822462,34310728.61981708,128624.94585605318,532636628.1412227,1605934647.016337,1427872736.1843393,32156491.73587528,0.8891225672459222,1.2207902531824621,0.039575929379278896,False
dpi_p05,0.05,5,2038-09-30,0.0,976182.7961502398,0.0,562883546.6286111,1605934647.016337,1428848918.9804895,32156491.73587528,0.8897304268484059,1.240232576904382,0.04191344287743759,False
dpi_p05,0.05,5,2038-12-31,249199.9493646681,5328464.410824005,0.0,542749022.2253815,1606183846.9657016,1434177383.3913136,32156491.73587528,0.8929098534396722,1.2308219942264866,0.04007798482763769,False
dpi_p05,0.05,5,2039-03-31,0.0,5406603.371104378,0.0,514048119.3433876,1606183846.9657016,1439583986.762418,32156491.73587528,0.8962759708248759,1.2163191092952907,0.03756658424979509,False
dpi_p05,0.05,5,2039-06-30,324764.5012650382,6042637.974202357,229.39299142552653,485633784.7538097,1606508611.4669666,1445626624.7366204,32156721.128866706,0.8998561317493103,1.2021475613049593,0.03514036460932679,False
dpi_p05,0.05,5,2039-09-30,0.0,44275265.981111795,0.0,434856815.1743233,1606508611.4669666,1489901890.7177322,32156721.128866706,0.9274160624369413,1.1981004596884681,0.03419098498698647,False
dpi_p05,0.05,5,2039-12-31,0.0,5756886.097362117,0.0,438905256.98203886,1606508611.4669666,1495658776.8150942,32156721.128866706,0.9309995390870324,1.2042039613037654,0.03472188961442113,False
dpi_p05,0.05,5,2040-03-31,0.0,42146450.67881066,0.0,408628861.8674522,1606508611.4669666,1537805227.4939048,32156721.128866706,0.957234350639225,1.2115926895555145,0.035410674609343995,False
dpi_p05,0.05,5,2040-06-30,416825.7696288191,26525584.729253825,105940.05437460754,390977270.01379466,1606925437.2365954,1564330812.2231586,32262661.183241315,0.973493091822178,1.2168007531198624,0.0358164104126778,False
dpi_p05,0.05,5,2040-09-30,0.0,33647209.72429107,4853.039906574034,387511227.4765893,1606925437.2365954,1597978021.9474497,32267514.223147888,0.9944319661125457,1.2355826869219606,0.03795736337798272,False
dpi_p05,0.05,5,2040-12-31,0.0,4798076.839883769,0.0,350625409.6106327,1606925437.2365954,1602776098.7873335,32267514.223147888,0.9974178400857245,1.2156142799987038,0.03512497129583447,False
dpi_p05,0.05,5,2041-03-31,0.0,5361997.3520530695,0.0,343677067.81736505,1606925437.2365954,1608138096.1393867,32267514.223147888,1.0007546454083625,1.2146270876844527,0.03475966168372169,False
dpi_p05,0.05,5,2041-06-30,0.0,5658583.496801165,0.0,319000387.53197664,1606925437.2365954,1613796679.6361878,32267514.223147888,1.0042760181899968,1.2027920041467297,0.033010607790081914,False
dpi_p05,0.05,5,2041-09-30,0.0,15108762.08034156,1637232.7120996846,311064324.3144981,1606925437.2365954,1628905441.7165294,33904746.93524757,1.0136782976799052,1.2072556206261589,0.03337132480772176,False
dpi_p05,0.05,5,2041-12-31,0.0,19042616.362673227,0.0,241877052.73725748,1606925437.2365954,1647948058.0792027,33904746.93524757,1.0255286399057526,1.1760502802584063,0.029131485669318447,False
dpi_p05,0.05,5,2042-03-31,0.0,26105341.067473605,0.0,200909866.42546898,1606925437.2365954,1674053399.1466763,33904746.93524757,1.0417741609875315,1.1668016586982968,0.02775739147972056,False
dpi_p05,0.05,5,2042-06-30,0.0,1374930.828126308,0.0,172846172.90806597,1606925437.2365954,1675428329.9748025,33904746.93524757,1.0426297892551943,1.1501930706015318,0.02538849043478375,False
dpi_p05,0.05,5,2042-09-30,0.0,8630740.945847927,0.0,157872814.7412725,1606925437.2365954,1684059070.9206505,33904746.93524757,1.048000754668929,1.1462460192486992,0.024751723559475254,False
dpi_p05,0.05,5,2042-12-31,0.0,948695.7269539451,0.0,152366139.4713988,1606925437.2365954,1685007766.6476045,33904746.93524757,1.0485911341009613,1.1434095593624471,0.02427812988879674,False
dpi_p05,0.05,5,2043-03-31,0.0,10350929.431886476,0.0,139429515.4251473,1606925437.2365954,1695358696.079491,33904746.93524757,1.0550325838359824,1.1418004650296,0.02398023612270428,False
dpi_p05,0.05,5,2043-06-30,0.0,5513888.988031914,615023.933250034,116389645.64055167,1606925437.2365954,1700872585.0675228,34519770.8684976,1.0584639122973165,1.1308939348381912,0.022401378499857016,False
dpi_p05,0.05,5,2043-09-30,0.0,639404.3178390312,0.0,108855597.97768228,1606925437.2365954,1701511989.385362,34519770.8684976,1.0588618177028957,1.1266033540898481,0.021744310778512577,False
dpi_p05,0.05,5,2043-12-31,0.0,2675467.2429843363,2667.7607498916077,93178683.09659258,1606925437.2365954,1704187456.6283462,34522438.629247494,1.060526778117976,1.1185124698852495,0.020549469219702243,False
dpi_p05,0.05,5,2044-03-31,0.0,4335763.846363379,7.898144137243887,85754346.25122619,1606925437.2365954,1708523220.4747095,34522446.527391635,1.0632249517518562,1.1165904311101869,0.020234067761827457,False
dpi_p05,0.05,5,2044-06-30,0.0,7807987.203117465,0.0,72260060.85428469,1606925437.2365954,1716331207.677827,34522446.527391635,1.06808391223763,1.1130518112949435,0.019691745785798465,False
dpi_p05,0.05,5,2044-09-30,0.0,2573222.686287807,0.0,58250917.99017748,1606925437.2365954,1718904430.3641148,34522446.527391635,1.0696852452096892,1.105935164863927,0.018635962870875544,False
dpi_p05,0.05,5,2044-12-31,0.0,135411.35260789806,0.0,46505126.526745155,1606925437.2365954,1719039841.7167227,34522446.527391635,1.0697695125624054,1.0987099508983118,0.01755481047839058,False
dpi_p05,0.05,5,2045-03-31,0.0,6231241.640894648,0.0,34265311.32257773,1606925437.2365954,1725271083.3576174,34522446.527391635,1.0736472541778534,1.0949707770548722,0.016982973301983617,False
dpi_p05,0.05,5,2045-06-30,0.0,4211986.289827784,0.0,23328857.105814673,1606925437.2365954,1729483069.6474452,34522446.527391635,1.0762684002448863,1.0907860975600356,0.01634512633192975,False
dpi_p05,0.05,5,2045-09-30,0.0,95832.02249995424,0.0,18705358.279375076,1606925437.2365954,1729578901.6699452,34522446.527391635,1.0763280371267725,1.0879685014855558,0.015912651991165316,True
dpi_p10,0.1,84,2025-12-31,0.0,0.0,0.0,0.0,0.0,0.0,0.0,,,,False
dpi_p10,0.1,84,2026-03-31,0.0,0.0,0.0,0.0,0.0,0.0,0.0,,,,False
dpi_p10,0.1,84,2026-06-30,0.0,0.0,0.0,0.0,0.0,0.0,0.0,,,,False
dpi_p10,0.1,84,2026-09-30,0.0,0.0,0.0,0.0,0.0,0.0,0.0,,,,False
dpi_p10,0.1,84,2026-12-31,9114504.486255132,0.0,0.0,7205172.637459448,9114504.486255132,0.0,0.0,0.0,0.7905172078553477,,False
dpi_p10,0.1,84,2027-03-31,26174026.542337097,0.0,0.0,27046083.272899553,35288531.02859223,0.0,0.0,0.0,0.7664270085650688,,False
dpi_p10,0.1,84,2027-06-30,18416335.687123656,0.0,0.0,42559130.164350055,53704866.715715885,0.0,0.0,0.0,0.7924631931335898,-0.7105727156581381,False
dpi_p10,0.1,84,2027-09-30,10228858.572143603,0.0,0.0,56233517.4103611,63933725.287859485,0.0,0.0,0.0,0.8795595307042027,-0.2895721636585914,False
dpi_p10,0.1,84,2027-12-31,68825993.1408205,608730.0951833312,0.0,126966599.16568273,132759718.42867999,608730.0951833312,0.0,0.0045852017644218476,0.9609490798174671,-0.12505954191872115,False
dpi_p10,0.1,84,2028-03-31,47100149.557285905,0.0,0.0,168442367.01904026,179859867.9859659,608730.0951833312,0.0,0.0033844687088885727,0.9399044879061865,-0.14431813722657189,False
dpi_p10,0.1,84,2028-06-30,98506460.75204802,0.0,0.0,248925045.7742645,278366328.7380139,608730.0951833312,0.0,0.002186794997595564,0.896422268457253,-0.239785573636939,False
dpi_p10,0.1,84,2028-09-30,60387988.87663888,0.0,0.0,287137093.1171774,338754317.6146528,608730.0951833312,0.0,0.0017969663072332767,0.8494233379474845,-0.268749947755103,False
dpi_p10,0.1,84,2028-12-31,96206893.11305074,647134.101682363,0.0,391123827.33240724,434961210.7277036,1255864.1968656941,0.0,0.002887301593548065,0.902102720545608,-0.15667535627808737,False
dpi_p10,0.1,84,2029-03-31,80794189.93329866,7284213.907870986,0.0,474461171.6055677,515755400.6610022,8540078.10473668,0.0,0.016558388130868913,0.9364928590011476,-0.08685525529505479,False
dpi_p10,0.1,84,2029-06-30,67145981.91448869,564647.0958225173,0.0,543231764.4581007,582901382.575491,9104725.200559197,0.0,0.015619666504016317,0.9475642126944643,-0.06092416488492608,False
dpi_p10,0.1,84,2029-09-30,51525775.63499143,399768.13111316453,0.0,601280013.7622507,634427158.2104824,9504493.331672361,0.0,0.014981220788973662,0.9627338602854774,-0.03661423162709597,False
dpi_p10,0.1,84,2029-12-31,91810699.58839524,1419228.4351982374,0.0,672489164.848949,726237857.7988776,10923721.7668706,0.0,0.015041520694031054,0.9410317560243219,-0.05387827218896206,False
dpi_p10,0.1,84,2030-03-31,45208535.1342255,6578131.146612357,1800369.3860626316,740916007.7331804,771446392.9331031,17501852.913482957,1800369.3860626316,0.022687062994668317,0.9831115520069978,-0.013291788131622798,False
dpi_p10,0.1,84,2030-06-30,53709907.49088694,756365.8452810535,0.0,800861806.3086873,825156300.42399,18258218.75876401,1800369.3860626316,0.022126982184323612,0.9926846885209056,-0.0051569910900976755,False
dpi_p10,0.1,84,2030-09-30,73097706.49485359,9166876.117117044,0.0,876201302.7535546,898254006.9188436,27425094.875881054,1800369.3860626316,0.030531558628893358,1.0059809259621566,0.00389319859727022,False
dpi_p10,0.1,84,2030-12-31,99479225.99121942,29404456.527777445,0.0,951831195.2019118,997733232.910063,56829551.403658494,1800369.3860626316,0.05695866342740253,1.0109523400996028,0.006814461864630528,False
dpi_p10,0.1,84,2031-03-31,104548563.01960042,29746730.611890532,0.0,1008844598.2029481,1102281795.9296634,86576282.01554903,1800369.3860626316,0.07854278491692833,0.99377571530574,-0.003763086888358711,False
dpi_p10,0.1,84,2031-06-30,36983297.677764595,40866045.56226202,0.0,1077528711.9190128,1139265093.607428,127442327.57781106,1800369.3860626316,0.1118636288366135,1.0576739744402603,0.030770419275688438,False
dpi_p10,0.1,84,2031-09-30,77105311.9670016,3584133.777181606,0.0,1159756352.1942601,1216370405.5744298,131026461.35499267,1800369.3860626316,0.10771921180794887,1.0611757797080583,0.030949916980996917,False
dpi_p10,0.1,84,2031-12-31,60496589.784049325,25901084.608578216,0.0,1213903680.5789309,1276866995.358479,156927545.9635709,1800369.3860626316,0.12290046381809223,1.0735896781149412,0.034754171441786094,False
dpi_p10,0.1,84,2032-03-31,76595950.86382689,39733487.70022537,4357899.357366074,1285341787.4600585,1353462946.222306,196661033.66379625,6158268.743428705,0.14530211869686066,1.0949711074546373,0.04244893911618475,False
dpi_p10,0.1,84,2032-06-30,37692573.95816827,40974373.98932019,28597742.050967705,1321829269.8971424,1391155520.1804743,237635407.65311643,34756010.79439641,0.17081872170718054,1.1209851486251874,0.049890508886779636,False
dpi_p10,0.1,84,2032-09-30,54020558.09553093,27910603.342303626,0.0,1351930380.5350485,1445176078.2760053,265546010.99542007,34756010.79439641,0.18374647559361626,1.1192244431972647,0.04674951404078412,False
dpi_p10,0.1,84,2032-12-31,46172735.97110644,19388844.594246022,85649.5022524508,1421725416.7603648,1491348814.2471118,284934855.58966607,34841660.29664886,0.19105849206277858,1.144373640858538,0.05307869246266772,False
dpi_p10,0.1,84,2033-03-31,30534934.482579082,56071330.28978897,0.0,1378213790.708557,1521883748.7296908,341006185.87945503,34841660.29664886,0.2240684849707419,1.1296657698217993,0.04537034248400307,False
dpi_p10,0.1,84,2033-06-30,13766095.842047604,82874931.11467452,6755938.462121551,1326052976.0516045,1535649844.5717385,423881116.99412954,41597598.75877041,0.27602719362911887,1.139539784561861,0.04569162758057044,False
dpi_p10,0.1,84,2033-09-30,43366573.533275306,19777834.7686373,0.0,1323201505.5985327,1579016418.1050138,443658951.76276684,41597598.75877041,0.2809717154779203,1.118962689116126,0.03793654714468585,False
dpi_p10,0.1,84,2033-12-31,11726066.919576012,26155183.262220822,0.0,1315527478.8253014,1590742485.0245898,469814135.02498764,41597598.75877041,0.2953426713926769,1.1223322634918442,0.036922107166779156,False
dpi_p10,0.1,84,2034-03-31,2866183.283497951,41141279.52349437,0.0,1292401865.1684763,1593608668.3080878,510955414.548482,41597598.75877041,0.3206279086640237,1.1316186436357414,0.03747784030991108,False
dpi_p10,0.1,84,2034-06-30,2532556.123274489,85777126.16493909,7589477.295188542,1194655028.7622795,1596141224.4313624,596732540.7134211,49187076.05395895,0.37385948785704204,1.122323978640359,0.03330152799121666,False
dpi_p10,0.1,84,2034-09-30,1626953.88599289,52697240.302287705,0.0,1159223627.6683145,1597768178.3173554,649429781.0157088,49187076.05395895,0.40646058034503946,1.131987376659833,0.034166465937282786,False
dpi_p10,0.1,84,2034-12-31,0.0,101580788.45739025,3473426.058404801,1129999986.0286365,1597768178.3173554,751010569.473099,52660502.112363756,0.4700372555072443,1.177273762882591,0.04293905750727689,False
dpi_p10,0.1,84,2035-03-31,1519192.9939397862,32808889.406536266,0.0,1120490475.3789802,1599287371.3112953,783819458.8796352,52660502.112363756,0.4901054513029527,1.190724048985158,0.04424906885640578,False
dpi_p10,0.1,84,2035-06-30,5976323.797046453,16147750.301535426,0.0,1101985395.5821555,1605263695.1083417,799967209.1811706,52660502.112363756,0.49834006189692065,1.1848225376049264,0.04167522277909608,False
dpi_p10,0.1,84,2035-09-30,887268.4280095721,35848419.11771251,0.0,1086679251.7074485,1606150963.5363512,835815628.2988831,52660502.112363756,0.5203842274319107,1.1969577727447664,0.04267176940872883,False
dpi_p10,0.1,84,2035-12-31,0.0,131497519.64159214,0.0,938384534.9890704,1606150963.5363512,967313147.9404752,52660502.112363756,0.6022554354484142,1.1864997289754544,0.03937279551793538,False
dpi_p10,0.1,84,2036-03-31,5816801.784161797,43363603.79006011,4286913.713146667,901544638.8866727,1611967765.320513,1010676751.7305354,56947415.82551042,0.6269832272542863,1.1862652788450734,0.038419766207633835,False
dpi_p10,0.1,84,2036-06-30,2062498.381300132,5345597.306651538,0.0,904955785.5450803,1614030263.7018132,1016022349.037187,56947415.82551042,0.6294939889831543,1.19017479274302,0.03821881643306965,False
dpi_p10,0.1,84,2036-09-30,0.0,30684261.1471343,366175.64554315066,852307923.0813768,1614030263.7018132,1046706610.1843213,57313591.47105357,0.648504946731096,1.1765668686473494,0.03491701247764201,False
dpi_p10,0.1,84,2036-12-31,708343.3307878105,138909520.17811418,775461.6382415374,737231472.9455162,1614738607.032601,1185616130.3624353,58089053.10929511,0.7342464750633773,1.1908104475445478,0.036572051133845096,False
dpi_p10,0.1,84,2037-03-31,0.0,4779110.65401623,0.0,718711988.2357216,1614738607.032601,1190395241.0164516,58089053.10929511,0.7372061557406101,1.182301098727386,0.03448811232721305,False
dpi_p10,0.1,84,2037-06-30,1562882.8196748346,25395650.76628063,0.0,710168582.4410765,1616301489.8522758,1215790891.7827322,58089053.10929511,0.7522055132757758,1.1915842968132353,0.035410719325132844,False
dpi_p10,0.1,84,2037-09-30,0.0,28286513.118691493,0.0,713855653.4885778,1616301489.8522758,1244077404.9014237,58089053.10929511,0.7697062786319203,1.2113662399512788,0.03789366772185565,False
dpi_p10,0.1,84,2037-12-31,0.0,58279780.74212578,3101.822299734347,688795552.751586,1616301489.8522758,1302357185.6435494,58092154.93159484,0.8057637723037552,1.231919138165937,0.04033757901119517,False
dpi_p10,0.1,84,2038-03-31,48328.94118882943,139527573.3413436,0.0,531327529.64886105,1616349818.7934647,1441884758.984893,58092154.93159484,0.892062313627874,1.2207829429564152,0.03811231513248636,False
dpi_p10,0.1,84,2038-06-30,1977034.3745451055,31623062.73148244,39125.78687407898,502730801.0183157,1618326853.1680098,1473507821.7163756,58131280.71846892,0.9105131134862288,1.2211616082783519,0.03776234241843503,False
dpi_p10,0.1,84,2038-09-30,107373.71376848221,57179277.04599393,0.0,464797561.18772197,1618434226.8817782,1530687098.7623696,58131280.71846892,0.9457827036391401,1.2329723548882012,0.03901583120258045,False
dpi_p10,0.1,84,2038-12-31,0.0,42579752.93889949,0.0,420611717.1769488,1618434226.8817782,1573266851.7012691,58131280.71846892,0.9720919303174077,1.2319799814910024,0.03849644549014364,False
dpi_p10,0.1,84,2039-03-31,0.0,20510010.469636105,47569.922772302176,404701484.88952494,1618434226.8817782,1593776862.1709054,58178850.64124122,0.9847646791563597,1.2348220977202635,0.03855198982134922,False
dpi_p10,0.1,84,2039-06-30,47569.92277230322,43869183.60415736,0.0,351051909.72640395,1618481796.8045506,1637646045.7750628,58178850.64124122,1.0118408801435699,1.2287428622477263,0.03742234302249925,False
dpi_p10,0.1,84,2039-09-30,0.0,30798204.319677558,0.0,312301863.3836288,1618481796.8045506,1668444250.0947404,58178850.64124122,1.0308699507086414,1.2238297133703049,0.03649982464292001,False
dpi_p10,0.1,84,2039-12-31,0.0,13077923.896259075,0.0,304328127.8702791,1618481796.8045506,1681522173.9909995,58178850.64124122,1.038950315852123,1.2269834024590465,0.036684358522120486,False
dpi_p10,0.1,84,2040-03-31,0.0,30809562.0342296,0.0,282840069.81390166,1618481796.8045506,1712331736.025229,58178850.64124122,1.0579864039286515,1.232742814765231,0.03720896482792713,False
dpi_p10,0.1,84,2040-06-30,0.0,12783184.214547675,0.0,263506659.3467777,1618481796.8045506,1725114920.2397766,58178850.64124122,1.0658846603315262,1.22869567239668,0.036489487703777024,False
dpi_p10,0.1,84,2040-09-30,0.0,3637276.0124503337,419955.71624538663,248336070.56564713,1618481796.8045506,1728752196.2522268,58598806.357486606,1.0681319985590128,1.2215696653007393,0.03539629227006247,False
dpi_p10,0.1,84,2040-12-31,0.0,7087099.995577767,0.0,236581652.41018236,1618481796.8045506,1735839296.2478046,58598806.357486606,1.0725108553429261,1.2186859021536331,0.0348598714379339,False
dpi_p10,0.1,84,2041-03-31,0.0,3786571.340141993,0.0,237441215.79864502,1618481796.8045506,1739625867.5879467,58598806.357486606,1.0748504376277674,1.221556576842578,0.0350641782244393,False
dpi_p10,0.1,84,2041-06-30,0.0,9405283.018484375,0.0,220404585.59401935,1618481796.8045506,1749031150.606431,58598806.357486606,1.0806616139023808,1.2168414498629554,0.034321561847489135,False
dpi_p10,0.1,84,2041-09-30,0.0,12218639.600290084,1259227.6723917555,188128905.7293223,1618481796.8045506,1761249790.206721,59858034.02987836,1.0882110590826812,1.204448947022326,0.03263065487327055,False
dpi_p10,0.1,84,2041-12-31,0.0,5461407.811509453,6274104.590477247,179798204.42116857,1618481796.8045506,1766711198.0182304,66132138.620355606,1.0915854608351707,1.2026761167672628,0.032290663244259776,False
dpi_p10,0.1,84,2042-03-31,272454.54723183974,13679260.174423398,0.0,150800325.2264885,1618754251.3517826,1780390458.192654,66132138.620355606,1.0998522207468446,1.1930104781540816,0.030974179968533577,False
dpi_p10,0.1,84,2042-06-30,0.0,18128042.682075698,0.0,128002716.08621891,1618754251.3517826,1798518500.8747296,66132138.620355606,1.1110509821814092,1.1901258114702447,0.030522108324536945,False
dpi_p10,0.1,84,2042-09-30,0.0,2537638.0106465374,6764.207999301386,116353404.49983492,1618754251.3517826,1801056138.8853762,66138902.82835491,1.1126186308893755,1.1844969931563292,0.02973888310580841,False
dpi_p10,0.1,84,2042-12-31,0.0,1412719.625906407,4929.087378133124,99176343.94010845,1618754251.3517826,1802468858.5112827,66143831.91573305,1.1134913511461573,1.174758429739025,0.02843767780488815,False
dpi_p10,0.1,84,2043-03-31,0.0,8713400.152191337,54934.15972593757,78286632.78068264,1618754251.3517826,1811182258.663474,66198766.07545898,1.1188741324700766,1.1672364040843797,0.02741981226125023,False
dpi_p10,0.1,84,2043-06-30,0.0,3746105.6085236436,0.0,68657838.23749644,1618754251.3517826,1814928364.2719977,66198766.07545898,1.1211883229071953,1.1636023200782681,0.026909832053019556,False
dpi_p10,0.1,84,2043-09-30,0.0,1471991.8891603888,0.0,56383906.43942707,1618754251.3517826,1816400356.161158,66198766.07545898,1.1220976591377758,1.1569293245325338,0.026009802045098396,False
dpi_p10,0.1,84,2043-12-31,0.0,2441514.6904544313,0.0,48956707.05849092,1618754251.3517826,1818841870.8516126,66198766.07545898,1.1236059268000327,1.1538493729671135,0.025580099584655014,False
dpi_p10,0.1,84,2044-03-31,0.0,2222592.9274016004,0.0,41652746.44079342,1618754251.3517826,1821064463.779014,66198766.07545898,1.12497895357389,1.150710312367858,0.0251468403343712,False
dpi_p10,0.1,84,2044-06-30,0.0,5468057.634163948,0.0,33403176.064598396,1618754251.3517826,1826532521.413178,66198766.07545898,1.1283568953643734,1.148992007850845,0.02490257961164699,False
dpi_p10,0.1,84,2044-09-30,0.0,97942.93329767461,0.0,28927628.512891397,1618754251.3517826,1826630464.3464756,66198766.07545898,1.128417400492447,1.146287703219828,0.024534426351972338,False
dpi_p10,0.1,84,2044-12-31,0.0,165446.39664666605,607.2648879595172,23813064.404034846,1618754251.3517826,1826795910.7431223,66199373.34034694,1.1285196064922203,1.1432303412341671,0.024122259195577977,False
dpi_p10,0.1,84,2045-03-31,0.0,902576.1852054712,0.0,17287791.591555856,1618754251.3517826,1827698486.9283278,66199373.34034694,1.129077181049601,1.1397568698146616,0.023657526400215567,False
dpi_p10,0.1,84,2045-06-30,0.0,587038.3229452247,0.0,14208586.173280988,1618754251.3517826,1828285525.251273,66199373.34034694,1.1294398292542032,1.1382173111736582,0.02344817223100215,False
dpi_p10,0.1,84,2045-09-30,0.0,211912.28879421708,0.0,12912447.886812884,1618754251.3517826,1828497437.5400672,66199373.34034694,1.1295707399768267,1.1375475208106254,0.023354181280812125,True
dpi_p50,0.5,48,2025-12-31,0.0,0.0,0.0,0.0,0.0,0.0,0.0,,,,False
dpi_p50,0.5,48,2026-03-31,0.0,0.0,0.0,0.0,0.0,0.0,0.0,,,,False
dpi_p50,0.5,48,2026-06-30,0.0,0.0,0.0,0.0,0.0,0.0,0.0,,,,False
dpi_p50,0.5,48,2026-09-30,0.0,0.0,0.0,0.0,0.0,0.0,0.0,,,,False
dpi_p50,0.5,48,2026-12-31,15359416.918844638,0.0,0.0,13846878.619757013,15359416.918844638,0.0,0.0,0.0,0.901523716227022,,False
dpi_p50,0.5,48,2027-03-31,12285359.289145041,0.0,0.0,22110148.88694561,27644776.207989678,0.0,0.0,0.0,0.7997948227396214,-0.8366897361743957,False
dpi_p50,0.5,48,2027-06-30,9894205.807107525,0.0,0.0,34338470.71203589,37538982.0150972,0.0,0.0,0.0,0.9147416597025952,-0.27421622106149035,False
dpi_p50,0.5,48,2027-09-30,17467673.57798111,0.0,0.0,55468685.59832963,55006655.593078315,0.0,0.0,0.0,1.0083995291164267,0.023041405045621667,False
dpi_p50,0.5,48,2027-12-31,42440555.00685881,0.0,0.0,91121537.21089995,97447210.59993713,0.0,0.0,0.0,0.9350861522860126,-0.18169890903134128,False
dpi_p50,0.5,48,2028-03-31,31520209.66205612,457349.5696122619,0.0,115455896.75556618,128967420.26199324,457349.5696122619,0.0,0.003546241125729046,0.8987792892941825,-0.2193755823336035,False
dpi_p50,0.5,48,2028-06-30,46287262.69302343,482317.77334415144,0.0,169448777.5034363,175254682.95501667,939667.3429564133,0.0,0.005361724589108991,0.9722333347869911,-0.053789970766987924,False
dpi_p50,0.5,48,2028-09-30,119625951.34995219,0.0,0.0,281668770.8330146,294880634.30496883,939667.3429564133,0.0,0.003186602420234212,0.958382495486951,-0.09163059076830041,False
dpi_p50,0.5,48,2028-12-31,88598173.21339706,0.0,0.0,346787797.1987456,383478807.51836586,939667.3429564133,0.0,0.0024503761995020024,0.9067710072219529,-0.17281362992537835,False
dpi_p50,0.5,48,2029-03-31,90191142.47062847,2661676.382377342,0.0,413176409.7151336,473669949.98899436,3601343.725333755,0.0,0.007603065648174286,0.8798906357689592,-0.19077059968066806,False
dpi_p50,0.5,48,2029-06-30,188849872.90779865,2917438.066909937,0.0,574158664.1833127,662519822.896793,6518781.792243692,0.0,0.009839376222346157,0.8764680329663344,-0.20005825606706193,False
dpi_p50,0.5,48,2029-09-30,86023640.94001292,39425637.76434001,0.0,634732741.9714034,748543463.8368059,45944419.5565837,0.0,0.0613784259381367,0.9093355221339361,-0.11831351785402958,False
dpi_p50,0.5,48,2029-12-31,79238241.86923984,5926913.737302038,71544.97970747258,714568956.4290655,827781705.7060457,51871333.29388574,71544.97970747258,0.06266305831154212,0.9258966276250643,-0.08205450726701623,False
dpi_p50,0.5,48,2030-03-31,51900142.978267714,40666208.340920374,0.0,710242933.6167129,879681848.6843134,92537541.63480611,71544.97970747258,0.10519432880558907,0.91258047037368,-0.08275328564528134,False
dpi_p50,0.5,48,2030-06-30,98089540.81477043,0.0,0.0,823404560.6253109,977771389.4990839,92537541.63480611,71544.97970747258,0.09464128591675551,0.9367650885442228,-0.054974448924551,False
dpi_p50,0.5,48,2030-09-30,82946328.92243616,3574000.7810069174,13036.377120902931,891509903.2468345,1060717718.42152,96111542.41581303,84581.35682837552,0.0906099151043116,0.9310879119963709,-0.05467852502071869,False
dpi_p50,0.5,48,2030-12-31,45717627.78181302,19076978.392845407,5441928.530123127,960987017.3172734,1106435346.203333,115188520.80865844,5526509.886951502,0.10410777385585249,0.972651083336016,-0.018927268389692442,False
dpi_p50,0.5,48,2031-03-31,94394014.68283656,57220607.0509841,1562350.217202586,1044621031.5183765,1200829360.8861694,172409127.85964254,7088860.104154089,0.14357504361186732,1.0134913410843769,0.008657705878354904,False
dpi_p50,0.5,48,2031-06-30,117370633.88052788,71226635.6073835,939921.1589260258,1125388944.2069173,1318199994.7666974,243635763.46702605,8028781.2630801145,0.18482458233520635,1.038556147101367,0.02358474175489167,False
dpi_p50,0.5,48,2031-09-30,58052472.82397334,12255863.467679689,9317742.5983203,1211366343.0544887,1376252467.5906708,255891626.93470573,17346523.861400414,0.18593363714920785,1.0661255870863882,0.03693482041126618,False
dpi_p50,0.5,48,2031-12-31,53195081.563865006,45871649.66274402,49567.746704948535,1226053176.0328972,1429447549.1545358,301763276.5974498,17396091.60810536,0.21110482631974245,1.0688160286356732,0.03561880532427997,False
dpi_p50,0.5,48,2032-03-31,30846577.016180664,44920736.43092873,75824.92964563516,1261145687.1193757,1460294126.1707165,346684013.0283785,17471916.537750997,0.23740697631748825,1.1010314095859,0.047563322183181,False
dpi_p50,0.5,48,2032-06-30,15777786.009495499,70444665.94984043,3909425.1464398936,1221568677.4092622,1476071912.180212,417128678.9782189,21381341.68419089,0.2825937378363258,1.1101744724395342,0.047673016232836374,False
dpi_p50,0.5,48,2032-09-30,24990068.28184978,6458871.705544097,0.0,1269725379.2944317,1501061980.462062,423587550.683763,21381341.68419089,0.2821919122575957,1.128076623096505,0.05151458301411538,False
dpi_p50,0.5,48,2032-12-31,8792351.895026367,21092584.13897227,7084.082121260697,1291255988.2305245,1509854332.3570883,444680134.8227353,21388425.766312152,0.29451856731670867,1.1497374851673452,0.055564868052589866,False
dpi_p50,0.5,48,2033-03-31,15681998.62519621,67947341.88374363,0.0,1278420032.9968662,1525536330.9822845,512627476.70647895,21388425.766312152,0.3360309854937384,1.1740444808352086,0.060189227177392834,False
dpi_p50,0.5,48,2033-06-30,7443891.601301947,25090088.676530547,0.0,1277934933.548865,1532980222.5835865,537717565.3830096,21388425.766312152,0.35076614653043264,1.1843939485872104,0.05987974189572032,False
dpi_p50,0.5,48,2033-09-30,15349427.038169598,52350827.14234399,3443297.9808546538,1306267075.6604075,1548329649.621756,590068392.5253536,24831723.747166805,0.3810999761384808,1.2247620967854098,0.06811318131790658,False
dpi_p50,0.5,48,2033-12-31,3938452.415209327,12209953.651654333,1811619.8660064125,1347820586.0082335,1552268102.0369654,602278346.1770079,26643343.613173217,0.38799891937911213,1.2562900246588988,0.07263543629529201,False
dpi_p50,0.5,48,2034-03-31,15451107.380045958,154260433.49121636,560160.2085938522,1205573853.3757963,1567719209.4170113,756538779.6682243,27203503.82176707,0.48257288366681356,1.2515714684478942,0.06855478390613146,False
dpi_p50,0.5,48,2034-06-30,13439631.286091398,39559116.43729092,0.0,1221541033.9025803,1581158840.7031026,796097896.1055152,27203503.82176707,0.5034901463483011,1.2760507534530185,0.07170028183056465,False
dpi_p50,0.5,48,2034-09-30,5455677.044219588,65159791.89529918,0.0,1135253198.0760694,1586614517.747322,861257688.0008144,27203503.82176707,0.5428273083140759,1.2583465383334154,0.06515511847412114,False
dpi_p50,0.5,48,2034-12-31,1796370.185781274,36721459.94934696,13554181.437600113,1133892098.8120542,1588410887.9331033,897979147.9501615,40757685.25936718,0.5653317757841888,1.279184915060711,0.0671579019605616,False
dpi_p50,0.5,48,2035-03-31,291559.51904627314,50219195.21509958,0.0,1076845073.5678146,1588702447.4521496,948198343.165261,40757685.25936718,0.5968382214592264,1.2746524183812389,0.0639907451308096,False
dpi_p50,0.5,48,2035-06-30,3003968.77255603,18215627.053090684,0.0,1076433603.5901468,1591706416.2247057,966413970.2183517,40757685.25936718,0.6071559179302324,1.2834323924218596,0.0637532713801282,False
dpi_p50,0.5,48,2035-09-30,2693622.695842282,71905216.42444289,498850.9402119342,1015170299.984793,1594400038.920548,1038319186.6427946,41256536.19957912,0.6512287765282324,1.2879386832039064,0.06272501638740036,False
dpi_p50,0.5,48,2035-12-31,1303874.0042642201,70106433.48480992,0.0,952319385.9321587,1595703912.924812,1108425620.1276045,41256536.19957912,0.6946311349803855,1.291433197204213,0.06164712416493512,False
dpi_p50,0.5,48,2036-03-31,1400422.1088321698,99002812.41164558,72042.10923930827,888971811.5906175,1597104335.0336442,1207428432.5392501,41328578.30881843,0.7560109919267202,1.3126257302943865,0.06376303857235188,False
dpi_p50,0.5,48,2036-06-30,2266225.963775235,28776133.637302134,0.0,850300610.5592065,1599370560.9974194,1236204566.1765523,41328578.30881843,0.7729319247977248,1.304578956007885,0.061103189766319566,False
dpi_p50,0.5,48,2036-09-30,784117.5648885032,69745199.73561317,19490999.02398744,796683829.5435326,1600154678.5623078,1305949765.9121654,60819577.33280587,0.8161397041225559,1.3140189655570378,0.061355953434934274,False
dpi_p50,0.5,48,2036-12-31,1700493.7650309773,75301781.67136322,0.0,725260715.9549332,1601855172.3273387,1381251547.5835285,60819577.33280587,0.862282415692241,1.3150453923233931,0.060403006018583505,False
dpi_p50,0.5,48,2037-03-31,403284.5095558979,49071025.24607371,0.0,713599549.7629335,1602258456.8368945,1430322572.8296022,60819577.33280587,0.892691542195558,1.3380626037231027,0.06286482171560548,False
dpi_p50,0.5,48,2037-06-30,26579.513271983713,27599834.620272286,0.0,695635429.9168558,1602285036.3501666,1457922407.4498746,60819577.33280587,0.9099020301474359,1.344054140499436,0.0627465899577796,False
dpi_p50,0.5,48,2037-09-30,0.0,112212941.28195116,2420388.723851448,573678633.5007272,1602285036.3501666,1570135348.7318258,63239966.05665732,0.9799351008784465,1.337972915927575,0.06095206951377298,False
dpi_p50,0.5,48,2037-12-31,1479319.771308341,24244287.43052938,0.0,557367138.1711535,1603764356.121475,1594379636.1623552,63239966.05665732,0.9941483174112837,1.3416851210842893,0.06076596491262942,False
dpi_p50,0.5,48,2038-03-31,16360.289152258623,58523122.10012168,0.0,480794543.7518724,1603780716.4106271,1652902758.262477,63239966.05665732,1.0306289016629333,1.3304171076390745,0.058545821804118936,False
dpi_p50,0.5,48,2038-06-30,1609141.2556926413,3502087.2937871926,0.0,499849874.9206822,1605389857.6663198,1656404845.5562642,63239966.05665732,1.0317773204099485,1.343134634979813,0.05971454524286124,False
dpi_p50,0.5,48,2038-09-30,3746332.2666348047,26919356.926409617,151655.47275288007,457958528.4540522,1609136189.9329545,1683324202.482674,63391621.5294102,1.0461042471195745,1.3307032334074493,0.05759177247949998,False
dpi_p50,0.5,48,2038-12-31,851879.4367003319,33971443.39620593,0.0,399164946.5440744,1609988069.369655,1717295645.8788798,63391621.5294102,1.06665116254634,1.3145815380182253,0.054971543677666435,False
dpi_p50,0.5,48,2039-03-31,185287.73929715066,12641621.301842026,330165.20035803714,378830299.05500364,1610173357.108952,1729937267.1807218,63721786.72976824,1.0743795129530676,1.3096525022759,0.05390072837487592,False
dpi_p50,0.5,48,2039-06-30,107339.74959372968,1720944.372997325,0.0,375209433.6701463,1610280696.8585458,1731658211.553719,63721786.72976824,1.0753766190776337,1.308385332652933,0.05333880269960656,False
dpi_p50,0.5,48,2039-09-30,4005781.3657308533,21305082.719791643,0.0,347611154.6717822,1614286478.2242765,1752963294.2735107,63721786.72976824,1.0859059515890757,1.3012401932870896,0.05212734479094616,False
dpi_p50,0.5,48,2039-12-31,286124.82498576806,41029310.78507401,0.0,312260485.84247583,1614572603.0492623,1793992605.0585847,63721786.72976824,1.1111253849287868,1.3045267130900255,0.05219885193346607,False
dpi_p50,0.5,48,2040-03-31,760354.6922626107,6807344.414211399,552651.8653355609,316026910.29634166,1615332957.741525,1800799949.4727962,64274438.5951038,1.1148165713095965,1.3104585340280408,0.05264611641670991,False
dpi_p50,0.5,48,2040-06-30,132240.1412329697,39848504.18763921,4355.410520604566,278437046.5149043,1615465197.882758,1840648453.6604354,64278794.005624406,1.1393922048415557,1.311749397605489,0.05250004190250135,False
dpi_p50,0.5,48,2040-09-30,341687.0500584277,8536605.941048406,0.0,278255554.6126634,1615806884.9328163,1849185059.6014838,64278794.005624406,1.14443444748558,1.3166428699198196,0.052824670325081535,False
dpi_p50,0.5,48,2040-12-31,0.0,5859629.823118658,3285.8786061512283,272516397.90035975,1615806884.9328163,1855044689.4246025,64282079.884230554,1.1480608894061828,1.31671742902211,0.05257009464466089,False
dpi_p50,0.5,48,2041-03-31,0.0,7521159.591463227,960338.8205498293,267500894.63455385,1615806884.9328163,1862565849.0160658,65242418.704780385,1.1527156285718572,1.3182681442400128,0.05250165155072184,False
dpi_p50,0.5,48,2041-06-30,198741.4310933965,11627684.703124976,0.0,253638376.0550371,1616005626.3639097,1874193533.7191908,65242418.704780385,1.1597691883884194,1.31672308255631,0.05208861009624355,False
dpi_p50,0.5,48,2041-09-30,0.0,12775711.277035145,0.0,239462275.39879945,1616005626.3639097,1886969244.996226,65242418.704780385,1.1676749227921919,1.3158565079872888,0.05176393000944979,False
dpi_p50,0.5,48,2041-12-31,0.0,12010937.314825706,0.0,226327269.8881154,1616005626.3639097,1898980182.3110518,65242418.704780385,1.1751074076294206,1.3151609236542148,0.05147601972461968,False
dpi_p50,0.5,48,2042-03-31,62033.9016295119,40756841.70097721,5786299.191766381,182040277.28040597,1616067660.2655392,1939737024.0120292,71028717.89654677,1.200282062258029,1.3129260324062186,0.05104008567887053,False
dpi_p50,0.5,48,2042-06-30,222318.61126121608,31838340.8312017,1478441.987595077,139586969.95515475,1616289978.8768003,1971575364.843231,72507159.88414185,1.2198153738559507,1.3061779522171413,0.05015298058742934,False
dpi_p50,0.5,48,2042-09-30,1160198.6563957352,7866215.297578996,677134.345501235,126107305.44050959,1617450177.533196,1979441580.14081,73184294.22964308,1.2238037422331574,1.3017704748053087,0.04957909123937532,False
dpi_p50,0.5,48,2042-12-31,541260.8868104226,3840115.3001152887,0.0,111521978.11399426,1617991438.4200065,1983281695.4409254,73184294.22964308,1.2257677317363498,1.2946939172932383,0.04871518057748603,False
dpi_p50,0.5,48,2043-03-31,0.0,20705788.219396222,0.0,80718948.85674933,1617991438.4200065,2003987483.6603215,73184294.22964308,1.2385649491552602,1.2884533150266968,0.047946591005569084,False
dpi_p50,0.5,48,2043-06-30,0.0,3614588.268561755,0.0,72956870.80333465,1617991438.4200065,2007602071.9288833,73184294.22964308,1.24079894630922,1.2858899579616538,0.0476045561523325,False
dpi_p50,0.5,48,2043-09-30,0.0,2537717.190786793,0.0,64057534.29859012,1617991438.4200065,2010139789.1196702,73184294.22964308,1.2423673830330044,1.2819581576054233,0.047122417837613395,False
dpi_p50,0.5,48,2043-12-31,0.0,4228189.568633858,61399.26301659677,57864701.12443967,1617991438.4200065,2014367978.688304,73245693.49265967,1.244980616618939,1.2807439091496744,0.04694251092139334,False
dpi_p50,0.5,48,2044-03-31,0.0,11248330.43539997,0.0,42281080.87058872,1617991438.4200065,2025616309.123704,73245693.49265967,1.2519326499661514,1.2780644822284266,0.04661329096510214,False
dpi_p50,0.5,48,2044-06-30,0.0,2529561.1112052216,3556.8291172365325,33629433.839668825,1617991438.4200065,2028145870.2349093,73249250.32177691,1.2534960458229771,1.2742807255444648,0.04618044365717344,False
dpi_p50,0.5,48,2044-09-30,0.0,2249621.2160820765,61838.52938892399,25221763.404645678,1617991438.4200065,2030395491.4509914,73311088.85116583,1.2548864247598885,1.2704747417347146,0.04575307733985834,False
dpi_p50,0.5,48,2044-12-31,0.0,768748.4842175754,0.0,21300154.382251542,1617991438.4200065,2031164239.935209,73311088.85116583,1.2553615499465633,1.2685261155162375,0.04552957981048944,False
dpi_p50,0.5,48,2045-03-31,0.0,1078431.5639950456,0.0,16668369.08099957,1617991438.4200065,2032242671.4992042,73311088.85116583,1.2560280748356247,1.2663299643791668,0.045284924652768344,False
dpi_p50,0.5,48,2045-06-30,0.0,3034795.7042669556,6314.816671016703,10965119.377109429,1617991438.4200065,2035277467.2034712,73317403.66783684,1.2579037310549375,1.2646807257390484,0.04510187737740601,False
dpi_p50,0.5,48,2045-09-30,0.0,346011.87107429944,0.0,8633107.821415484,1617991438.4200065,2035623479.0745454,73317403.66783684,1.258117583775575,1.2634532781534424,0.044967665527628875,True
dpi_p90,0.9,81,2025-12-31,0.0,0.0,0.0,0.0,0.0,0.0,0.0,,,,False
dpi_p90,0.9,81,2026-03-31,0.0,0.0,0.0,0.0,0.0,0.0,0.0,,,,False
dpi_p90,0.9,81,2026-06-30,0.0,0.0,0.0,0.0,0.0,0.0,0.0,,,,False
dpi_p90,0.9,81,2026-09-30,0.0,0.0,0.0,0.0,0.0,0.0,0.0,,,,False
dpi_p90,0.9,81,2026-12-31,3314662.042068281,0.0,0.0,2415556.080225894,3314662.042068281,0.0,0.0,0.0,0.7287488285588949,,False
dpi_p90,0.9,81,2027-03-31,21502195.038626153,0.0,0.0,19412730.09950452,24816857.080694433,0.0,0.0,0.0,0.782239670252447,,False
dpi_p90,0.9,81,2027-06-30,28724804.12668486,0.0,0.0,49919941.21360746,53541661.2073793,0.0,0.0,0.0,0.9323569737639616,-0.4303446986551725,False
dpi_p90,0.9,81,2027-09-30,17106087.708337493,0.0,0.0,70046735.12430629,70647748.9157168,0.0,0.0,0.0,0.9914928104485322,-0.029078636149822243,False
dpi_p90,0.9,81,2027-12-31,42276773.78668204,0.0,0.0,104510226.19626,112924522.70239884,0.0,0.0,0.0,0.9254874290829295,-0.2103394615512279,False
dpi_p90,0.9,81,2028-03-31,34596681.79014112,0.0,0.0,133098290.78618479,147521204.49253994,0.0,0.0,0.0,0.9022315893096947,-0.21080779772065222,False
dpi_p90,0.9,81,2028-06-30,66258710.61004564,36307.84010431167,0.0,189760022.1463241,213779915.10258558,36307.84010431167,0.0,0.0001698374708722697,0.8878117941779129,-0.22896714406187174,False
dpi_p90,0.9,81,2028-09-30,114525291.19929649,14633.098926958855,0.0,302215311.70140994,328305206.3018821,50940.93903127052,0.0,0.00015516336035326068,0.9206867476920313,-0.16564700378556854,False
dpi_p90,0.9,81,2028-12-31,124394111.52046408,464629.5854287681,0.0,405416445.1848165,452699317.82234615,515570.52446003864,0.0,0.001138880718751967,0.8966923512541659,-0.19613920183068706,False
dpi_p90,0.9,81,2029-03-31,38008709.160061896,722529.8154104743,303143.2917327428,420839652.3358884,490708026.98240805,1238100.339870513,303143.2917327428,0.0025230896414802258,0.8601403063881212,-0.1979320291696925,False
dpi_p90,0.9,81,2029-06-30,31689932.55196337,0.0,0.0,452081666.5791068,522397959.53437144,1238100.339870513,303143.2917327428,0.0023700328787158126,0.8677671086675653,-0.14901544390885663,False
dpi_p90,0.9,81,2029-09-30,56312464.06293091,3318598.709439104,0.0,499474559.7374072,578710423.5973023,4556699.049309617,303143.2917327428,0.007873884525847787,0.8709559016642989,-0.12713269761037171,False
dpi_p90,0.9,81,2029-12-31,114554174.97669832,1823157.29396315,0.0,605968916.5759164,693264598.5740006,6379856.343272767,303143.2917327428,0.00920262819765456,0.8832829112848833,-0.11187030396952279,False
dpi_p90,0.9,81,2030-03-31,133689414.70795098,6234819.845840482,0.0,763471802.3520715,826954013.2819515,12614676.189113248,303143.2917327428,0.015254386563829698,0.9384880731893571,-0.056597738413086074,False
dpi_p90,0.9,81,2030-06-30,68877857.73963366,878695.3095994814,0.0,801990068.3571043,895831871.0215852,13493371.49871273,303143.2917327428,0.015062392771676243,0.9103085815933958,-0.07408236377335709,False
dpi_p90,0.9,81,2030-09-30,90834613.7875873,5755289.119673851,1523013.4118905892,908921241.3730097,986666484.8091725,19248660.61838658,1826156.703623332,0.019508781249531742,0.9407129118923201,-0.04455328481927555,False
dpi_p90,0.9,81,2030-12-31,100923282.48091337,6979061.171889668,0.0,1037338516.9906074,1087589767.2900858,26227721.79027625,1826156.703623332,0.024115454722994558,0.9779112223820744,-0.015267172805034576,False
dpi_p90,0.9,81,2031-03-31,104777007.65652834,819478.6272108939,0.0,1152855874.682456,1192366774.946614,27047200.417487144,1826156.703623332,0.022683624691486503,0.9895470922969747,-0.006768755820275531,False
dpi_p90,0.9,81,2031-06-30,76499760.17544022,87527854.7828391,725363.3538582755,1151635487.2256188,1268866535.1220543,114575055.20032625,2551520.0574816074,0.09029716840101318,0.9979067990032113,-0.0012420784193145074,False
dpi_p90,0.9,81,2031-09-30,55802136.97562143,34535968.69065213,0.0,1153357235.522399,1324668672.0976758,149111023.8909784,2551520.0574816074,0.11256476961507213,0.9832407807688672,-0.009201694452188526,False
dpi_p90,0.9,81,2031-12-31,56078663.237359956,9890498.186134875,90786.13507179866,1253769811.9291866,1380747335.3350358,159001522.07711327,2642306.192553406,0.11515613176145065,1.0231932359032898,0.01161467987337439,False
dpi_p90,0.9,81,2032-03-31,52755532.644942105,9973036.422523497,0.0,1313976080.5799704,1433502867.9799778,168974558.49963677,2642306.192553406,0.11787528457319897,1.034494364960224,0.016042140381128563,False
dpi_p90,0.9,81,2032-06-30,33241176.454066403,27799253.054167785,2199432.7438679445,1362751817.1674452,1466744044.4340444,196773811.55380455,4841738.936421351,0.1341568846319955,1.0632568338281585,0.026896010175466563,False
dpi_p90,0.9,81,2032-09-30,37264510.6292477,13424669.850040562,0.0,1488576288.809484,1504008555.063292,210198481.4038451,4841738.936421351,0.13975883361580976,1.1294980766527893,0.04996569992130695,False
dpi_p90,0.9,81,2032-12-31,27812181.29606048,42290195.74172993,0.0,1536475766.395146,1531820736.3593526,252488677.14557505,4841738.936421351,0.16482912860003435,1.1678680155437227,0.059513680117458834,False
dpi_p90,0.9,81,2033-03-31,16771539.21027367,61354427.93616977,83358.50774848471,1576041611.0875218,1548592275.5696263,313843105.0817448,4925097.444169835,0.2026634834958752,1.2203888305423072,0.0715079827872892,False
dpi_p90,0.9,81,2033-06-30,9652358.979503192,24177100.792725682,0.0,1624515861.5524998,1558244634.5491295,338020205.8744705,4925097.444169835,0.2169237091403655,1.2594531204625778,0.07767215713090672,False
dpi_p90,0.9,81,2033-09-30,7712472.757312736,72670369.56735002,764080.0584630473,1654174106.4933262,1565957107.3064423,410690575.4418205,5689177.502632882,0.26226170150230843,1.3185959387398938,0.08757768384190101,False
dpi_p90,0.9,81,2033-12-31,6341691.197529145,68801782.38027266,4258496.321673964,1690062387.9607425,1572298798.5039713,479492357.8220931,9947673.824306846,0.3049626179695144,1.3798616063607936,0.09636290117974788,False
dpi_p90,0.9,81,2034-03-31,4021240.147254587,24865908.4869435,0.0,1765680092.2737622,1576320038.651226,504358266.3090366,9947673.824306846,0.3199593064493359,1.4400872303349965,0.10363489475778664,False
dpi_p90,0.9,81,2034-06-30,5846741.275112376,146495076.6440802,13949540.730397701,1685772165.0044816,1582166779.9263384,650853342.9531168,23897214.554704547,0.4113683533308788,1.476851579494284,0.10557038624902637,False
dpi_p90,0.9,81,2034-09-30,2715646.8874546564,1996680.627803986,0.0,1714792978.9438224,1584882426.8137932,652850023.5809208,23897214.554704547,0.41192331527922466,1.493891889056144,0.1039689656481636,False
dpi_p90,0.9,81,2034-12-31,4812104.084988149,151786758.91768152,0.0,1602755085.6170845,1589694530.8987813,804636782.4986024,23897214.554704547,0.5061581120516764,1.5143738758128558,0.10312383547890847,False
dpi_p90,0.9,81,2035-03-31,1002914.4763929762,46439245.11871087,0.0,1563810058.8979886,1590697445.3751743,851076027.6173133,23897214.554704547,0.5350332522955568,1.518130360702087,0.09997267673440635,False
dpi_p90,0.9,81,2035-06-30,976297.8811720263,133109843.85728234,0.0,1429352937.4944496,1591673743.2563462,984185871.4745955,23897214.554704547,0.6183339240497152,1.516352719390392,0.0962898683076302,False
dpi_p90,0.9,81,2035-09-30,6522643.7409707485,303056438.3406845,939283.1978821136,1148316598.9292746,1598196386.997317,1287242309.81528,24836497.75258666,0.8054343760804916,1.523942194188331,0.09469393024813633,False
dpi_p90,0.9,81,2035-12-31,330361.0831049673,41311826.89673814,0.0,1122945387.6719291,1598526748.080422,1328554136.712018,24836497.75258666,0.8311116084278237,1.5335993140732935,0.09376730398459932,False
dpi_p90,0.9,81,2036-03-31,1610780.9462678842,127131066.28206822,677010.2305509342,996495365.2992078,1600137529.0266898,1455685202.9940863,25513507.983137593,0.9097250558703732,1.5324811297844338,0.09160397420292388,False
dpi_p90,0.9,81,2036-06-30,4686.690806657076,43617178.196216114,67999.87578835625,963441580.3841789,1600142215.7174964,1499302381.1903024,25581507.85892595,0.9369807048794235,1.5390781752921867,0.0906909910209105,False
dpi_p90,0.9,81,2036-09-30,522918.75766312017,109283147.27514659,0.0,872162515.5933547,1600665134.4751594,1608585528.4654489,25581507.85892595,1.004948189236899,1.5498232519896884,0.09039630703481027,False
dpi_p90,0.9,81,2036-12-31,0.0,11529886.960957631,0.0,848078016.9299691,1600665134.4751594,1620115415.4264064,25581507.85892595,1.0121513741583585,1.5419798802362676,0.08801998852411008,False
dpi_p90,0.9,81,2037-03-31,0.0,61791966.01304806,105819.2329534103,826690442.2120771,1600665134.4751594,1681907381.4394546,25687327.09187936,1.05075530491325,1.5672221313635806,0.08965319365201274,False
dpi_p90,0.9,81,2037-06-30,588368.2626819964,34383129.32733557,16179.665852088954,792425597.5197589,1601253502.7378414,1716290510.7667902,25703506.75773145,1.0718418462987012,1.5667201376903268,0.08837225450756636,False
dpi_p90,0.9,81,2037-09-30,0.0,65299035.063134596,0.0,726547809.7276392,1601253502.7378414,1781589545.8299248,25703506.75773145,1.1126217946026302,1.5663587003988575,0.08716888832920311,False
dpi_p90,0.9,81,2037-12-31,0.0,44912486.12986549,0.0,645470221.6797544,1601253502.7378414,1826502031.9597902,25703506.75773145,1.1406701242725255,1.5437732060619622,0.08370067774087986,False
dpi_p90,0.9,81,2038-03-31,714263.2012776455,17445999.53251537,195575.85051704437,626372475.8928559,1601967765.939119,1843948031.4923055,25899082.608248495,1.151051894237916,1.542053816505471,0.08268508754186932,False
dpi_p90,0.9,81,2038-06-30,0.0,22118908.042903785,2607303.9452577606,604470236.5923074,1601967765.939119,1866066939.5352094,28506386.553506255,1.1648592307606562,1.5421890681297308,0.08188434387689136,False
dpi_p90,0.9,81,2038-09-30,182639.294920829,42529844.42892009,0.0,562891832.9294643,1602150405.23404,1908596783.9641294,28506386.553506255,1.1912719166246593,1.542607116547564,0.08116277284332629,False
dpi_p90,0.9,81,2038-12-31,335021.18250477157,20134199.229177468,0.0,535967224.5792075,1602485426.4165447,1928730983.193307,28506386.553506255,1.2035872223227064,1.5380471904097361,0.0800200468625133,False
dpi_p90,0.9,81,2039-03-31,0.0,21477591.24299749,821269.0997189485,520941883.60074955,1602485426.4165447,1950208574.4363043,29327655.653225202,1.216989897248135,1.5420735922466426,0.07978638628887114,False
dpi_p90,0.9,81,2039-06-30,0.0,60873885.56928113,0.0,458894669.3020029,1602485426.4165447,2011082460.0055854,29327655.653225202,1.2549770667822793,1.541341399173231,0.07911337161353182,False
dpi_p90,0.9,81,2039-09-30,347409.1491232839,26101259.99014224,0.0,466811848.3845695,1602832835.5656679,2037183719.9957278,29327655.653225202,1.270989509817953,1.5622312650567787,0.08055336303147753,False
dpi_p90,0.9,81,2039-12-31,0.0,40911580.17438818,0.0,416559432.2403392,1602832835.5656679,2078095300.170116,29327655.653225202,1.2965140556511743,1.5564035606558109,0.07950506784193767,False
dpi_p90,0.9,81,2040-03-31,16802.02206580341,19201235.327094052,0.0,383063319.31234366,1602849637.5877337,2097296535.49721,29327655.653225202,1.3084799012423973,1.5474688309144584,0.0782567846267822,False
dpi_p90,0.9,81,2040-06-30,0.0,3748197.6168537075,0.0,356982138.1965614,1602849637.5877337,2101044733.1140637,29327655.653225202,1.3108183599031202,1.5335355317607464,0.07661295350899977,False
dpi_p90,0.9,81,2040-09-30,0.0,61022251.45298283,4058.4227584236314,300776620.5768,1602849637.5877337,2162066984.5670466,29331714.075983625,1.3488894615348495,1.5365406382412712,0.07650941500787611,False
dpi_p90,0.9,81,2040-12-31,0.0,20661018.426932633,1391473.76543827,277757830.55610293,1602849637.5877337,2182728002.9939795,30723187.841421895,1.3617796403404092,1.5350696508582544,0.07607890804310402,False
dpi_p90,0.9,81,2041-03-31,109115.07642715768,20348132.69359681,0.0,258092933.9402616,1602958752.664161,2203076135.6875763,30723187.841421895,1.3743810513065318,1.5353913914112314,0.07584117450006878,False
dpi_p90,0.9,81,2041-06-30,154662.47311107037,883493.5613227711,553.2476779357073,245742244.45960206,1603113415.1372721,2203959629.248899,30723741.089099832,1.3747995671661055,1.528090184123833,0.07498701965434129,False
dpi_p90,0.9,81,2041-09-30,27004.278482414848,22982933.393543303,0.0,220278334.05144513,1603140419.4157546,2226942562.642442,30723741.089099832,1.3891126040312956,1.526516870921231,0.07462490548482259,False
dpi_p90,0.9,81,2041-12-31,282027.0171773048,38967898.0004389,150522.88738300838,170250264.26062426,1603422446.432932,2265910460.642881,30874263.97648284,1.4131712236433753,1.5193505182137945,0.0738424601464579,False
dpi_p90,0.9,81,2042-03-31,288813.6363138482,14037041.678147167,32107.540519715323,133459531.62800713,1603711260.0692458,2279947502.321028,30906371.517002553,1.4216695730019278,1.5048887502634531,0.07252099550293878,False
dpi_p90,0.9,81,2042-06-30,0.0,1391766.6523270244,0.0,125493547.16613317,1603711260.0692458,2281339268.9733553,30906371.517002553,1.4225374141694624,1.5007893727924344,0.07207084204102221,False
dpi_p90,0.9,81,2042-09-30,0.0,9398710.179764913,0.0,108518919.45235959,1603711260.0692458,2290737979.15312,30906371.517002553,1.4283980141501342,1.4960653818081213,0.07158231713023533,False
dpi_p90,0.9,81,2042-12-31,0.0,5646590.3591563115,3595.165583373501,104140851.63677073,1603711260.0692458,2296384569.512276,30909966.682585925,1.4319189661442682,1.4968563736625482,0.07155090343158188,False
dpi_p90,0.9,81,2043-03-31,0.0,2005662.7254061422,7457235.834713524,102746621.81100741,1603711260.0692458,2298390232.2376823,38367202.51729945,1.4331696044451552,1.4972376348751286,0.07149398852709765,False
dpi_p90,0.9,81,2043-06-30,0.0,3293234.3807243025,45277.89754653766,92404017.76627302,1603711260.0692458,2301683466.618407,38412480.41484599,1.4352231127435144,1.4928419747338475,0.07107331629284996,False
dpi_p90,0.9,81,2043-09-30,0.0,10208393.8870916,0.0,77369563.67242953,1603711260.0692458,2311891860.5054984,38412480.41484599,1.4415885939503066,1.4898326673061852,0.07077028622764525,False
dpi_p90,0.9,81,2043-12-31,0.0,5621421.189852866,0.0,59769862.39931552,1603711260.0692458,2317513281.695351,38412480.41484599,1.4450938516172072,1.4823635671124609,0.07014923579565424,False
dpi_p90,0.9,81,2044-03-31,0.0,1080635.3748621966,0.0,52349393.760785274,1603711260.0692458,2318593917.0702133,38412480.41484599,1.4457676857429436,1.4784103409791016,0.06980911410669133,False
dpi_p90,0.9,81,2044-06-30,0.0,4821888.98279882,0.0,43945149.36123985,1603711260.0692458,2323415806.0530124,38412480.41484599,1.4487743921887104,1.4761765502051991,0.06960497353505357,False
dpi_p90,0.9,81,2044-09-30,0.0,299723.1391417309,0.0,33148555.598826446,1603711260.0692458,2323715529.192154,38412480.41484599,1.448961285644287,1.469631188278378,0.06909658745435798,False
dpi_p90,0.9,81,2044-12-31,0.0,114768.56961521076,0.0,26885527.0873954,1603711260.0692458,2323830297.7617693,38412480.41484599,1.4490328500040772,1.465797418387936,0.0687959724781032,False
dpi_p90,0.9,81,2045-03-31,0.0,1238637.348413059,0.0,17538249.0601703,1603711260.0692458,2325068935.1101823,38412480.41484599,1.4498052068361666,1.460741245945484,0.06841648850350424,False
dpi_p90,0.9,81,2045-06-30,0.0,201189.39837407536,0.0,13921789.35130163,1603711260.0692458,2325270124.5085564,38412480.41484599,1.4499306592186394,1.4586116416984285,0.06825380170812012,False
dpi_p90,0.9,81,2045-09-30,0.0,720230.130648766,2327.662424477854,10942729.992772061,1603711260.0692458,2325990354.639205,38414808.07727046,1.450379761341061,1.4572031405024068,0.06814592002495157,True
dpi_p95,0.95,103,2025-12-31,0.0,0.0,0.0,0.0,0.0,0.0,0.0,,,,False
dpi_p95,0.95,103,2026-03-31,0.0,0.0,0.0,0.0,0.0,0.0,0.0,,,,False
dpi_p95,0.95,103,2026-06-30,0.0,0.0,0.0,0.0,0.0,0.0,0.0,,,,False
dpi_p95,0.95,103,2026-09-30,0.0,0.0,0.0,0.0,0.0,0.0,0.0,,,,False
dpi_p95,0.95,103,2026-12-31,15617479.034759142,0.0,0.0,16756341.645321116,15617479.034759142,0.0,0.0,0.0,1.0729223076289878,,False
dpi_p95,0.95,103,2027-03-31,6677534.390037904,0.0,0.0,23827196.06026852,22295013.424797043,0.0,0.0,0.0,1.0687231088978555,0.4616269259791771,False
dpi_p95,0.95,103,2027-06-30,16394387.117485091,0.0,0.0,34887957.4901173,38689400.542282134,0.0,0.0,0.0,0.901744586401374,-0.35981229132495196,False
dpi_p95,0.95,103,2027-09-30,13880854.493547525,0.0,0.0,51308939.77526688,52570255.03582966,0.0,0.0,0.0,0.9760070545653027,-0.06494957673786231,False
dpi_p95,0.95,103,2027-12-31,62732961.08106043,0.0,0.0,103498106.61275929,115303216.1168901,0.0,0.0,0.0,0.8976168236958523,-0.3461325909347127,False
dpi_p95,0.95,103,2028-03-31,31728546.01327763,24684.552303633733,0.0,125634589.27081437,147031762.13016772,24684.552303633733,0.0,0.00016788584960153314,0.8546403307869725,-0.3338380330794324,False
dpi_p95,0.95,103,2028-06-30,26940549.714926798,0.0,0.0,152059177.89968634,173972311.84509453,24684.552303633733,0.0,0.0001418878213540838,0.8741842931155959,-0.22055837561235087,False
dpi_p95,0.95,103,2028-09-30,80391679.70637694,20273.625989664877,0.0,235918887.31584108,254363991.55147147,44958.17829329861,0.0,0.00017674741624818842,0.927662142958573,-0.13019273474718146,False
dpi_p95,0.95,103,2028-12-31,67270433.87602004,357711.087137735,0.0,299354817.01947933,321634425.42749155,402669.26543103356,0.0,0.0012519470355072744,0.9319819726588532,-0.10711454342993926,False
dpi_p95,0.95,103,2029-03-31,37669293.11353512,818372.9562976537,0.0,347810790.16368663,359303718.54102665,1221042.2217286872,0.0,0.003398356762592937,0.9714116898168466,-0.03620918257208798,False
dpi_p95,0.95,103,2029-06-30,75644693.73867074,0.0,0.0,417063975.8645104,434948412.2796974,1221042.2217286872,0.0,0.0028073265409312154,0.9616888032626205,-0.044918535198290234,False
dpi_p95,0.95,103,2029-09-30,82484878.62909323,556329.5086404035,0.0,487994130.07786304,517433290.90879065,1777371.7303690906,0.0,0.0034349775354566288,0.9465403761478607,-0.05808117496354557,False
dpi_p95,0.95,103,2029-12-31,83169282.21115036,2017275.222295481,263.8725274136084,580913421.8746628,600602573.119941,3794646.952664572,263.8725274136084,0.0063180664261103265,0.973535737267913,-0.02612796262078739,False
dpi_p95,0.95,103,2030-03-31,89586103.76350957,14995328.316043032,0.0,654091922.861219,690188676.8834505,18789975.268707603,263.8725274136084,0.027224403844980195,0.9749245686966749,-0.022955309459984308,False
dpi_p95,0.95,103,2030-06-30,138166792.32370627,335352.7676062958,0.0,833252288.4178138,828355469.2071568,19125328.0363139,263.8725274136084,0.023088310208924327,1.0289998052043565,0.02558382673282636,False
dpi_p95,0.95,103,2030-09-30,78825181.64613087,15887014.315409886,0.0,932060967.584736,907180650.8532877,35012342.35172378,263.8725274136084,0.03859467496224861,1.0660206531376495,0.05152616168685642,False
dpi_p95,0.95,103,2030-12-31,131824505.86116569,1154303.5749046444,0.0,1050712940.7627178,1039005156.7144533,36166645.926628426,263.8725274136084,0.03480891860151566,1.0460771822598858,0.03470733775416457,False
dpi_p95,0.95,103,2031-03-31,85105450.90499845,10434931.081635915,0.0,1190798706.130272,1124110607.6194518,46601577.00826434,263.8725274136084,0.041456398233758594,1.1007816088124993,0.0678261880800809,False
dpi_p95,0.95,103,2031-06-30,58836714.641783714,8158414.837381564,109608.0527656406,1257126744.7322147,1182947322.2612355,54759991.845645905,109871.92529305421,0.046291149922864455,1.108998441342387,0.06587976123653683,False
dpi_p95,0.95,103,2031-09-30,99899555.42948851,9844795.408889605,0.0,1377165481.8723054,1282846877.690724,64604787.25453551,109871.92529305421,0.05036048212615349,1.1238833676878084,0.06989556991051671,False
dpi_p95,0.95,103,2031-12-31,33804557.50138503,19165927.800561976,0.0,1464474461.6918993,1316651435.1921089,83770715.05509749,109871.92529305421,0.06362406390638593,1.1758960157295517,0.08733088040821432,False
dpi_p95,0.95,103,2032-03-31,29775515.031457152,21318743.9745455,21617.66861236223,1476055901.1180272,1346426950.223566,105089459.029643,131489.59390541643,0.07805062057929955,1.1743268804038203,0.07873520743260397,False
dpi_p95,0.95,103,2032-06-30,68744049.62874855,3877358.1883888403,292388.7005755974,1636137902.9886436,1415170999.8523147,108966817.21803184,423878.29448101384,0.07699904621378156,1.2331405324083042,0.09695460961259228,False
dpi_p95,0.95,103,2032-09-30,62375518.00054705,18174659.869280063,0.0,1745893944.6005003,1477546517.852862,127141477.0873119,423878.29448101384,0.08604905195950859,1.267665957759263,0.1032928587606542,False
dpi_p95,0.95,103,2032-12-31,35997182.984552994,102433737.02219902,1788793.7842535689,1687726106.2250385,1513543700.837415,229575214.1095109,2212672.0787345828,0.15168059830878441,1.2667631065252645,0.09582058186728493,False
dpi_p95,0.95,103,2033-03-31,31304926.59904562,45052491.79999544,192995.78052580165,1703192106.608872,1544848627.4364605,274627705.9095063,2405667.8592603845,0.1777699776095388,1.2802677086883232,0.09403144284144271,False
dpi_p95,0.95,103,2033-06-30,25102095.873152178,102820050.46312976,11784729.997723907,1731634913.8933048,1569950723.3096128,377447756.3726361,14190397.856984291,0.24042012960568504,1.3434069228744863,0.10569735632168997,False
dpi_p95,0.95,103,2033-09-30,885808.1556517686,31426092.35660681,0.0,1776778021.2094076,1570836531.4652646,408873848.7292429,14190397.856984291,0.2602905143464218,1.391393583073785,0.110517831529925,False
dpi_p95,0.95,103,2033-12-31,6600140.826940113,179401274.15667403,94643448.12416156,1690089167.1115315,1577436672.2922046,588275122.885917,108833845.98114584,0.3729310553120859,1.4443459633068578,0.11588384476970448,False
dpi_p95,0.95,103,2034-03-31,9274424.68213204,103236112.31413111,1431926.3393619584,1614020805.267798,1586711096.9743366,691511235.2000481,110265772.32050781,0.4358142049417031,1.4530257240049638,0.11222913804519041,False
dpi_p95,0.95,103,2034-06-30,486609.4997846304,43061749.831087425,0.0,1588453164.417647,1587197706.4741213,734572985.0311356,110265772.32050781,0.4628112692167077,1.4636022594874247,0.10903719217273344,False
dpi_p95,0.95,103,2034-09-30,2395174.5528917313,128198627.02641019,5390276.702695151,1543006232.185021,1589592881.027013,862771612.0575458,115656049.02320296,0.5427626295735053,1.513455346307432,0.11336137762737752,False
dpi_p95,0.95,103,2034-12-31,920075.1795671472,52715387.55019942,0.0,1538990638.3704727,1590512956.2065802,915486999.6077452,115656049.02320296,0.575592293061987,1.5431987701830603,0.11393068297745057,False
dpi_p95,0.95,103,2035-03-31,181836.60850523735,69399140.67843087,0.0,1528009027.9109674,1590694792.8150854,984886140.2861761,115656049.02320296,0.6191546893437696,1.5797469002523237,0.11556868513766017,False
dpi_p95,0.95,103,2035-06-30,946701.901990909,21678406.255108856,325573.6760094615,1555686302.3180652,1591641494.7170763,1006564546.5412849,115981622.69921242,0.632406575150397,1.6098165682183383,0.11613463026814241,False
dpi_p95,0.95,103,2035-09-30,325573.6760094613,65477079.02264275,22577616.825498108,1436191181.2201815,1591967068.3930857,1072041625.5639277,138559239.52471054,0.6734069107635717,1.5755557112848397,0.1074938731133791,False
dpi_p95,0.95,103,2035-12-31,2051820.6491268065,69823676.45663014,0.0,1335539254.4881344,1594018889.0422125,1141865302.0205579,138559239.52471054,0.7163436455302377,1.5541877035078762,0.10140118082847926,False
dpi_p95,0.95,103,2036-03-31,0.0,86204072.78018685,435002.7274254731,1299011900.7318802,1594018889.0422125,1228069374.8007448,138994242.25213602,0.7704233514689695,1.585352151661801,0.10282950034267258,False
dpi_p95,0.95,103,2036-06-30,565010.5654423744,49163443.01662028,22458.36893307474,1269774385.2861953,1594583899.6076548,1277232817.8173652,139016700.6210691,0.800981885074612,1.5972864166822756,0.10181928910732052,False
dpi_p95,0.95,103,2036-09-30,1180873.5982014234,42493491.08486743,3722386.2897512405,1197538175.5116868,1595764773.2058563,1319726308.9022326,142739086.91082034,0.8270180737546496,1.5774658813634483,0.09701561310175177,False
dpi_p95,0.95,103,2036-12-31,1530396.444829151,141989750.41297644,402655.901402765,1076151593.1047783,1597295169.6506855,1461716059.3152092,143141742.8122231,0.91511956405332,1.588853269352212,0.09632553845067526,False
dpi_p95,0.95,103,2037-03-31,671603.999544495,10770156.945459466,1522526.7474873245,1061386137.635894,1597966773.65023,1472486216.2606685,144664269.55971044,0.9214748645224164,1.5856852568395066,0.09419282905223103,False
dpi_p95,0.95,103,2037-06-30,0.0,73916620.3889657,0.0,999036593.2154043,1597966773.65023,1546402836.6496341,144664269.55971044,0.967731533689647,1.5929238779167478,0.09330931470957238,False
dpi_p95,0.95,103,2037-09-30,57352.41764016719,88726057.33364467,0.0,868040864.4780868,1598024126.0678701,1635128893.9832788,144664269.55971044,1.0232191537725461,1.5664154987576533,0.08880464484985817,False
dpi_p95,0.95,103,2037-12-31,1614234.7517214145,62255484.41797881,1430463.4998166745,777998714.9347212,1599638360.8195915,1697384378.4012575,146094733.05952713,1.0611050722311917,1.5474641981376902,0.08548330440214225,False
dpi_p95,0.95,103,2038-03-31,717616.530983857,54522375.180240646,413068.11277845525,719139464.5243509,1600355977.3505754,1751906753.5814981,146507801.17230558,1.0946981661428967,1.5440603547447742,0.08405940984962201,False
dpi_p95,0.95,103,2038-06-30,74400.59758180467,34351518.33422045,0.0,674830781.0794959,1600430377.9481573,1786258271.9157186,146507801.17230558,1.116111201416836,1.5377670199877551,0.08241453028482149,False
dpi_p95,0.95,103,2038-09-30,900781.9878296,179766190.39217898,0.0,474457882.3217517,1601331159.935987,1966024462.3078976,146507801.17230558,1.2277438368129232,1.524033507676955,0.08010132536926184,False
dpi_p95,0.95,103,2038-12-31,440104.7795797745,8473695.194723453,0.0,487673816.11260045,1601771264.7155669,1974498157.502621,146507801.17230558,1.2326967033293863,1.5371557898764274,0.08087269754936532,False
dpi_p95,0.95,103,2039-03-31,121055.1054274475,14559018.379389018,211248.15837859537,478818013.2183474,1601892319.8209944,1989057175.88201,146719049.33068419,1.2416921857171273,1.540599925827807,0.08063051126197773,False
dpi_p95,0.95,103,2039-06-30,118219.99451249481,22636713.152913183,0.0,454244570.85007155,1602010539.815507,2011693889.034923,146719049.33068419,1.2557307452337965,1.5392773009901548,0.07993025183604952,False
dpi_p95,0.95,103,2039-09-30,43053.688400399005,46642005.17194798,139479.12074755912,434360928.5418209,1602053593.5039074,2058335894.206871,146858528.45143175,1.284810884325669,1.5559384735043897,0.08099479525616349,False
dpi_p95,0.95,103,2039-12-31,2002848.8106568279,20647197.711652845,154618.28979623487,410194897.05697286,1604056442.3145642,2078983091.9185238,147013146.74122798,1.2960785151167542,1.5518019960592855,0.08017305786863005,False
dpi_p95,0.95,103,2040-03-31,147728.30999771092,5725849.619949417,0.0,421352507.7747827,1604204170.624562,2084708941.5384731,147013146.74122798,1.2995284389061506,1.5621836018152073,0.08067150050388927,False
dpi_p95,0.95,103,2040-06-30,0.0,43683991.61991049,0.0,378697824.1576834,1604204170.624562,2128392933.1583836,147013146.74122798,1.326759381463109,1.5628252333616521,0.08027262886378839,False
dpi_p95,0.95,103,2040-09-30,0.0,27981959.848636996,0.0,348891510.9746003,1604204170.624562,2156374893.0070205,147013146.74122798,1.344202273310063,1.5616880007276441,0.07976888532015447,False
dpi_p95,0.95,103,2040-12-31,265661.7082971746,43529805.87016666,0.0,294229288.06951594,1604469832.3328593,2199904698.8771873,147013146.74122798,1.3711100418002753,1.554491045381822,0.07879310040201493,False
dpi_p95,0.95,103,2041-03-31,835311.5873412443,1993635.6839147247,0.0,308815325.7353176,1605305143.9202006,2201898334.561102,147013146.74122798,1.3716384968305801,1.5640102255980977,0.07932844192593402,False
dpi_p95,0.95,103,2041-06-30,1456261.5537851178,36885835.40616912,37942.38091545376,277268004.9055803,1606761405.4739857,2238784169.967271,147051089.12214345,1.3933519702054593,1.5659152418654405,0.07922338267033868,False
dpi_p95,0.95,103,2041-09-30,646325.1858772741,39632669.76607337,12275827.77412557,240431474.6059987,1607407730.659863,2278416839.733344,159326916.89626902,1.4174479792989565,1.5670251338814456,0.07906136392605323,False
dpi_p95,0.95,103,2041-12-31,61392.281955685496,14466283.640073767,829.9153379754761,210420502.07200396,1607469122.9418187,2292883123.373418,159327746.811607,1.426393260467254,1.5572949985279605,0.07805882562735278,False
dpi_p95,0.95,103,2042-03-31,0.0,4081142.3523520306,462028.97068981227,194795771.42978024,1607469122.9418187,2296964265.72577,159789775.7822968,1.4289321225169853,1.550113779227931,0.07729907819692616,False
dpi_p95,0.95,103,2042-06-30,0.0,3636183.6481117248,0.0,182876825.98209512,1607469122.9418187,2300600449.373882,159789775.7822968,1.4311941775675094,1.5449611068180156,0.07671966891513293,False
dpi_p95,0.95,103,2042-09-30,0.0,6121700.571893241,305199.04447128286,179702786.20148197,1607469122.9418187,2306722149.945775,160094974.8267681,1.4350024625818367,1.5467948346011566,0.07669618059215277,False
dpi_p95,0.95,103,2042-12-31,0.0,9419448.836034631,0.0,163506398.63002327,1607469122.9418187,2316141598.78181,160094974.8267681,1.4408622633715378,1.5425789285917018,0.07621891961395455,False
dpi_p95,0.95,103,2043-03-31,0.0,12049366.415515793,0.0,145539174.77974585,1607469122.9418187,2328190965.1973257,160094974.8267681,1.448358125185334,1.5388974535634716,0.07580559527808706,False
dpi_p95,0.95,103,2043-06-30,0.0,11342203.666915586,1770840.4440978444,124648284.78542519,1607469122.9418187,2339533168.864241,161865815.27086595,1.4554140639309305,1.5329572546563035,0.07524479778588178,False
dpi_p95,0.95,103,2043-09-30,0.0,156581.62167307138,0.0,121726265.84545049,1607469122.9418187,2339689750.485914,161865815.27086595,1.4555114727205853,1.5312368873541677,0.07501536155643074,False
dpi_p95,0.95,103,2043-12-31,0.0,1298258.7569667022,537029.4884441119,111054108.08949742,1607469122.9418187,2340988009.242881,162402844.75931007,1.4563191142102028,1.5254054229327354,0.07449606146574761,False
dpi_p95,0.95,103,2044-03-31,0.0,6436381.164679619,300.6728542609587,98015741.38713446,1607469122.9418187,2347424390.4075603,162403145.43216434,1.4603231607407514,1.521298354595646,0.07411525007328945,False
dpi_p95,0.95,103,2044-06-30,0.0,8512322.619300755,1235762.4576996663,79978366.57469575,1607469122.9418187,2355936713.026861,163638907.889864,1.4656186420024522,1.5153728583872297,0.07362122399267002,False
dpi_p95,0.95,103,2044-09-30,0.0,9974415.035815068,38.23736178293979,59462613.05030917,1607469122.9418187,2365911128.0626764,163638946.1272258,1.4718236850066755,1.5088151346100664,0.07310130618451705,False
dpi_p95,0.95,103,2044-12-31,0.0,1468959.9369484715,472327.4180007125,52624299.06756241,1607469122.9418187,2367380087.9996247,164111273.54522648,1.4727375190057137,1.5054748813080485,0.07282505399083317,False
dpi_p95,0.95,103,2045-03-31,0.0,3453424.007658692,0.0,43446973.49106154,1607469122.9418187,2370833512.007283,164111273.54522648,1.4748858800276277,1.501914065434729,0.07254334185568811,False
dpi_p95,0.95,103,2045-06-30,0.0,5899027.220381087,256047.9674254945,24483253.292408958,1607469122.9418187,2376732539.2276645,164367321.51265198,1.4785556408561191,1.4937865730979791,0.07196213293727183,False
dpi_p95,0.95,103,2045-09-30,0.0,2258716.8998906515,0.0,18605043.425209768,1607469122.9418187,2378991256.127555,164367321.51265198,1.4799607794479925,1.4915349012520625,0.07179350669341067,True
